Hamid-Manouchehri/bimanual_ur5/ur5_gazebo/scripts/data_plot/whole_scenario/right_torque_whole_scenario_1.csv
time,right_torque (Nm),T_shoulder,T_upper_arm,T_forearm,T_wrist_1,T_wrist_2,T_wrist_3
0.0104,0.15681020121806433,-41.85272503517947,-16.38282909861768,-0.6206010332852897,-0.13664054886543742,0.733211622257135
0.0202,0.029423126814471345,-44.34000020036794,-17.377185888722206,-0.1681950628895572,-0.048345479385746515,0.2325184641644293
0.0302,0.0117727451618439,-44.43933154690365,-17.43166370091418,-0.14532991071990775,-0.027312275392583185,0.13709241666588007
0.0397,0.00829624870392931,-44.125967661072764,-17.339572118708386,-0.12708075066772861,-0.016113567093994696,0.09722891898714336
0.0504,0.009233137376141398,-43.61074844570044,-17.1820045035028,-0.10056151715684769,-0.008340500100593395,0.0754301492406062
0.0607,0.012079168064342394,-42.947453617882836,-16.977837879268485,-0.07986492625682251,-0.00214439112052478,0.06177253975110164
0.07,0.015057309773271355,-42.235541581467636,-16.75846840472835,-0.06723322219557337,0.0025791193879856067,0.05254739894279137
0.0802,0.017824153540286103,-41.48115120871006,-16.525885721103997,-0.05893649082334429,0.0062983122439908,0.04598620682163357
0.0902,0.020233590761995934,-40.67960760279299,-16.278912720646446,-0.052965285135687656,0.009322742992944555,0.04110297885505987
0.1002,0.021963675714271602,-39.831366448427474,-16.016149186102894,-0.0480601069523372,0.011831456895079029,0.03730483774075166
0.1102,0.023115374824413948,-39.01948758585816,-15.765988640025306,-0.04432900343490376,0.01361015861935666,0.034304506863336415
0.1212,0.02379034092879384,-38.184179227364524,-15.508444476723009,-0.04137863872457581,0.01493144629729981,0.031875996466912304
0.14,0.02404141582862973,-37.38141730071951,-15.261811668816847,-0.039864835570707635,0.015716048982074238,0.029988367828312712
0.1548,0.024119361207425527,-36.511892250425745,-14.996468750629642,-0.03819767127207663,0.0161437943781495,0.02832344835966205
0.1601,0.023375074473160895,-35.693109865998984,-14.747239499334256,-0.03721316782448225,0.01617749603088603,0.02694974167778741
0.1637,0.022576632375524985,-34.92523323679286,-14.51421850316796,-0.03664645636622299,0.015747423514339776,0.025848260821847435
0.1703,0.021157460561889607,-34.39281234415838,-14.353218966035815,-0.036360568160375806,0.015004688073036121,0.025068605938631805
0.1802,0.019733766786336426,-34.05135818505388,-14.251301716504576,-0.03616217348855044,0.01404533032837918,0.024540558344872676
0.1902,0.018057219261893076,-33.78436561004331,-14.171760527651175,-0.0361877596061535,0.012882656212063637,0.02417079668784239
0.2011,0.016275907279506452,-33.60269703571459,-14.117797095947884,-0.03635203802621767,0.011574644720960148,0.023947861895213363
0.2102,0.01437828010155573,-33.499447151515454,-14.087694833331035,-0.03665811859000612,0.010168359820472261,0.02385169201320192
0.2211,0.012589359731715932,-33.47443610510872,-14.081123613409606,-0.036998981686129584,0.008742613018610346,0.023870688400312146
0.2302,0.01078090519910102,-33.513592477565275,-14.093706275246422,-0.0374138128194581,0.00725495267048748,0.023990536530254958
0.2406,0.009130373541949899,-33.61047893174396,-14.12328772036381,-0.03784639745923046,0.005823856036496711,0.024199838074509872
0.2502,0.007566946183848344,-33.758186119734376,-14.16806396104982,-0.038313116423274396,0.004388117789901003,0.024492437197693895
0.26,0.006164708546313458,-33.94596509184167,-14.223844850256373,-0.03878942072032432,0.0030294828272698915,0.024858072517870755
0.2702,0.004894752704987626,-34.17045526169094,-14.289506636241342,-0.03927575720181897,0.0017247378524198886,0.025292415837607884
0.2802,0.0038400070544983844,-34.41589219101306,-14.360460777066452,-0.039763037684513725,0.0005304156118346448,0.025784140694392388
0.2902,0.0029664410833678545,-34.68629778708126,-14.437589742852964,-0.040233406193966204,-0.0006045228394446767,0.026336738182311414
0.2999,0.0022815829779470054,-34.964237856877354,-14.515486361129327,-0.04071817130715738,-0.0016173884255690218,0.026937392907519953
0.3103,0.0017784761582091413,-35.25071739405609,-14.59375729918294,-0.04118621537316236,-0.00253599146169714,0.027585951124525554
0.3202,0.0014632638698302003,-35.543491639783255,-14.672157328354778,-0.041638924450557724,-0.0033708414575626122,0.02828245394675344
0.3302,0.0012967140363577823,-35.840708355472955,-14.749475451040306,-0.042087032811367386,-0.004120825210172097,0.029025125104244487
0.3403,0.001400815405561806,-36.13472861630804,-14.823531711863632,-0.04246072816968316,-0.004799335215911693,0.029815724473945426
0.3502,0.0015412343798506534,-36.42409130265138,-14.893465975376692,-0.04289777894182634,-0.005372037448405642,0.03065164203645676
0.3605,0.0018264033581807393,-36.705875239583285,-14.958810297301644,-0.04332610921492863,-0.005870790372263013,0.03152861683830743
0.3702,0.0021866772961804948,-36.97203245100293,-15.016921134153659,-0.04379318198345716,-0.006283104795584471,0.0324372275792425
0.3804,0.0027327966881922627,-37.2268202844909,-15.069474056967374,-0.04421966247894815,-0.006646517319319312,0.033383428689233385
0.3902,0.0034031985953386634,-37.4862413959093,-15.119483855637993,-0.04458872519621804,-0.006963132982408471,0.034381852188083206
0.4003,0.004167056374013711,-37.723130788623415,-15.161129796792627,-0.04500539382309432,-0.007230616026972392,0.03542080083849608
0.4096,0.004950869954162496,-37.962470666854635,-15.199171106149747,-0.04541705643296168,-0.007442183697156324,0.03651714131155814
0.4195,0.005853233792516566,-38.16861369497509,-15.227822121878312,-0.04593688897746451,-0.007647858506517391,0.037645632206060986
0.4303,0.006738545232494619,-38.36843993319022,-15.251207648068252,-0.046483651145331484,-0.007819415117995998,0.03882782555686415
0.4409,0.007748447475603326,-38.560853058261394,-15.269742358300764,-0.04699294028049872,-0.007995626955775492,0.04006859407486019
0.4507,0.008741653228411028,-38.749702243071795,-15.284023745168914,-0.04756779354354812,-0.008150506373898914,0.041382277365841214
0.4603,0.009589183727256145,-38.92974991540421,-15.293390431651439,-0.048319240800055674,-0.00828912447290131,0.042758719786435306
0.4702,0.010514345838562145,-39.08883695877686,-15.298571203512445,-0.04917222511639263,-0.008470665013878609,0.04417313585768157
0.4802,0.011643712371445236,-39.24669030933488,-15.301109528011727,-0.04990095791884763,-0.008698225832549422,0.04569404016555134
0.4902,0.012565731012323278,-39.404763937562954,-15.301102669214536,-0.050906021608478014,-0.008909087895617507,0.047319554059783164
0.5002,0.013433462966904175,-39.55256176210971,-15.299309811615952,-0.05209315895048583,-0.009158795514808027,0.04902170977600717
0.5103,0.01427102972150851,-39.70269539492105,-15.296125350967364,-0.05336462398888586,-0.009433193952599783,0.05080805896521623
0.5202,0.015091549746125255,-39.85402993001363,-15.292274097475119,-0.05472929574332197,-0.009737793182939658,0.052680349917578306
0.5302,0.01589843327237017,-40.00877068997782,-15.288093115294197,-0.05618932844607927,-0.010073601373598695,0.05464200653971252
0.5401,0.016696961910817265,-40.16905953236965,-15.284111295672563,-0.05773473924755812,-0.01044042547712154,0.05669849938632909
0.5509,0.017513759971003573,-40.34196966910091,-15.280146419329435,-0.05930476395946194,-0.010841746416359044,0.05886115290385063
0.5602,0.018333744595760537,-40.523943388970764,-15.277126109824929,-0.060939869985010886,-0.011277786242695154,0.061139213519453395
0.5703,0.01914861857677952,-40.704734068072916,-15.275287705622327,-0.06275746434605056,-0.011749120612997377,0.0635286448410688
0.5805,0.019995794627233332,-40.907872453806384,-15.274547173838407,-0.06454558441583558,-0.012258467154126595,0.06604559026173407
0.5903,0.020835004547621994,-41.10325068111164,-15.27553080676143,-0.06661049994857593,-0.012799811651358795,0.06868985384308546
0.6005,0.022035991148596334,-41.320730165546834,-15.278352903418316,-0.06826987956821795,-0.013436095276880167,0.07149710865626413
0.6102,0.023044740826531962,-41.533912587446785,-15.282713159192857,-0.07083724677524339,-0.014100299108361192,0.07471134000799973
0.6203,0.024044431410475298,-41.75050634608824,-15.288762911951643,-0.07362878173661336,-0.01480526392300252,0.07809590573153635
0.6302,0.025044926912705545,-41.9686258170869,-15.296194091816872,-0.07662843130093044,-0.015540541946123199,0.08161667485952884
0.6402,0.02606967552533246,-42.19330423435222,-15.305340797848263,-0.07975986792742629,-0.016306010244776736,0.08526394360017431
0.6502,0.027147529837770135,-42.431529278113665,-15.316337955873095,-0.08294795081948614,-0.017106992796437126,0.08905380423201026
0.6602,0.028262509690500703,-42.67218880334902,-15.328697790608363,-0.08628317805517205,-0.017933836403628334,0.09297558175358756
0.6702,0.02938099163897756,-42.91709527843747,-15.342316045764617,-0.08975097765751405,-0.01877631746610664,0.09698894202207886
0.683,0.03060930830836739,-43.19294516623709,-15.35863537880303,-0.0930506169116061,-0.019660348687811968,0.10111657764970372
0.695,0.03183396409751427,-43.48088366032375,-15.376665909623746,-0.09667181420517346,-0.020570503528471562,0.10544905501287105
0.7027,0.03304315365028221,-43.79038900484046,-15.397105227636402,-0.10033044215334375,-0.021496897064090525,0.1098255418556614
0.7206,0.03427864737856545,-44.101221577644814,-15.418328459363378,-0.10379598106671462,-0.022416822120495894,0.11420850352296286
0.7339,0.03552875242784692,-44.44716149083982,-15.442495489770472,-0.10696935110930439,-0.023348133480594058,0.11864690260017463
0.7399,0.03683193737297552,-44.8017539379274,-15.468191477092457,-0.1102979674739073,-0.02428042209690684,0.12307349842877469
0.7489,0.03811791556185762,-45.16810157485355,-15.4951543179423,-0.11328415376864154,-0.025199172610820497,0.1274018474655607
0.7568,0.03955659150634672,-45.51456896938761,-15.521803793717881,-0.11641522869492049,-0.026128323419822408,0.13189649683265525
0.765,0.0412434452936532,-45.84585343309001,-15.548184620869623,-0.11991227812445837,-0.02712299097459958,0.1367941060077137
0.7751,0.04312499807543402,-46.153848205553324,-15.573439523082918,-0.12426086385347213,-0.028223564524472167,0.1423581902753543
0.7843,0.04502066878202626,-46.45234540206814,-15.598111175696115,-0.12897920093726167,-0.029371670082403156,0.148235556348157
0.7937,0.04713061029461363,-46.73953479995901,-15.622253443578654,-0.13417301688301286,-0.03061586507204961,0.1545661469326839
0.8002,0.049218157352929115,-47.00919648421457,-15.645014927228441,-0.139595753597336,-0.031883428429217986,0.16106386797017114
0.8104,0.05132017916653275,-47.25971046430989,-15.666293493163973,-0.14531134889093145,-0.0331864430266231,0.16769860524731106
0.8204,0.05358538587399364,-47.49773559502401,-15.68670872977568,-0.15144728210132619,-0.03456301461019429,0.1746465066733996
0.832,0.055841877946116725,-47.716297451533435,-15.705166033139525,-0.15778834906802075,-0.036009439801567567,0.18202669399452182
0.8399,0.058033870703250834,-47.944564096328946,-15.724017532041682,-0.16373186287871078,-0.037417122919442214,0.18915994530016228
0.8507,0.06021099165261212,-48.16183171844057,-15.741823825539669,-0.16957868763495298,-0.03881075794362232,0.19620318287829652
0.8603,0.06328303500493737,-48.388588060854175,-15.762929283295096,-0.1788587592978763,-0.04045835761118788,0.20434930421512587
0.8703,0.06724098884054497,-48.608713461732265,-15.782574650505689,-0.19051683891421844,-0.042863328466445694,0.21663678766298056
0.8803,0.0714304654633593,-48.81662799535789,-15.800351220991688,-0.2025293198563063,-0.045574672874918676,0.23045151988199586
0.8902,0.07559923879430075,-49.03273322943153,-15.818148726965994,-0.21399553539602034,-0.04832082959284101,0.24437166218496714
0.9003,0.08005858823719691,-49.24278763066299,-15.836229141289504,-0.2268514378553994,-0.051195786225700424,0.2589124204408263
0.9104,0.08442606775295447,-49.45208777657833,-15.853196750504104,-0.23818988435654176,-0.054098332541770766,0.273562475278716
0.9199,0.08877988645126722,-49.66291262120295,-15.870488391271836,-0.24957770022860348,-0.056976108522582614,0.28803811589796724
0.9303,0.09304981733027295,-49.86935053513579,-15.887018096648184,-0.2600141441075896,-0.059807527001147776,0.302294449553565
0.9403,0.09709634271933121,-50.099661735898735,-15.905293562258512,-0.26962497012098696,-0.062485254434972326,0.31574628611498445
0.9498,0.10103604536995636,-50.32140480660519,-15.92231839622206,-0.27788738174445116,-0.06509757600755162,0.32891680729954
0.9602,0.10468976030473742,-50.538196267649,-15.938920887795424,-0.2851286033128111,-0.06750822308080462,0.34108918708576874
0.9695,0.10775430639203609,-50.74369162985533,-15.953845736498973,-0.2895385338603633,-0.06954779497382546,0.35140166423634667
0.9802,0.11008382733606537,-50.94931895410064,-15.968337594928354,-0.2917493209495827,-0.07110383892583094,0.35925149323818484
0.9902,0.11166474673393623,-51.159846242939715,-15.98358073677882,-0.292175974484038,-0.07216762606400717,0.36457520184100867
1.0002,0.11250210353505086,-51.38126759935724,-15.999777595571452,-0.2910575920695673,-0.07275709798107943,0.367432740258799
1.0102,0.11269210193630519,-51.615547689905824,-16.01775808734981,-0.2891314209884195,-0.07290948955528709,0.3680683022793769
1.0203,0.11283290343496555,-51.86965105649146,-16.041448061174563,-0.29178908599516884,-0.07290322390771653,0.3679324224252968
1.0304,0.11359847902002951,-52.103360763319216,-16.06139163336703,-0.29293034547765506,-0.07339686277458668,0.3703623341801491
1.0402,0.11389251543531786,-52.32634528938753,-16.08021049390009,-0.2926608716604979,-0.07362076334937129,0.3713622375758363
1.0503,0.11372169366268503,-52.572203140192805,-16.10199446185534,-0.29241727615447366,-0.07352216357161012,0.3706859815258049
1.0603,0.11348697971703947,-52.80680477401988,-16.123071408418067,-0.2921821885468461,-0.07339496381285127,0.3698727452494628
1.0703,0.11299313412677181,-53.02875839472782,-16.143310754078374,-0.29159681159012774,-0.07311045957778273,0.36825100010423595
1.0802,0.11217659741414199,-53.24928572907248,-16.163863179113193,-0.2905876968205108,-0.07261866182814547,0.3655727674023108
1.0887,0.11146572966283674,-53.46704688235561,-16.18491353144848,-0.29041039532574997,-0.07214914925726124,0.36307558138886553
1.1003,0.11058181473314654,-53.69399616925236,-16.206721003354073,-0.2896414663590199,-0.0716030613564902,0.36016309224948706
1.1105,0.10991254635474723,-53.90292866885114,-16.227313524648487,-0.2894077138440294,-0.0711683247663526,0.35786880796046094
1.1219999999999999,0.10991653100361232,-54.108620333365124,-16.248391073243113,-0.290354598476958,-0.07106206625107436,0.3574140751165299
1.1302,0.11047199923014794,-54.31140725424156,-16.268902143823166,-0.29278404289041715,-0.07145408584412039,0.35933741013092746
1.1402,0.11137605440856868,-54.49725430758806,-16.288015254119,-0.2957802602112025,-0.07207373962375385,0.36235976548349647
1.1501000000000001,0.11251462147399627,-54.67201317235631,-16.30642579940921,-0.29962787749027386,-0.07289500601432852,0.3663294890137623
1.1602000000000001,0.11345960873527305,-54.846706298653466,-16.32504507255062,-0.30332988717944653,-0.07363539576270828,0.3697990484542476
1.1708,0.11436837843844261,-55.01029432495054,-16.342908096439448,-0.30684444792829435,-0.07435519275324243,0.3731243819223816
1.1808,0.11504943999462647,-55.16946282428399,-16.3607555308382,-0.3107012961712625,-0.07498184789528217,0.37591773950984686
1.1905999999999999,0.11515214708082722,-55.3145070274565,-16.377349331527636,-0.31331015999905976,-0.0752208892845454,0.3767783364588655
1.2004,0.1146507376111332,-55.44855925507435,-16.39297231733425,-0.3144495814472057,-0.07504326800308014,0.37559553284103997
1.2102,0.1135963018976982,-55.57259557647889,-16.407512773899583,-0.3139740139678704,-0.07446829052216497,0.37250065344467054
1.2202,0.11210489251943212,-55.69003230663454,-16.421242787106134,-0.312040851295321,-0.07356769324636847,0.3678679144809134
1.2306,0.11038672482782541,-55.794499109494645,-16.43373521132525,-0.3088396658857464,-0.07246586658109244,0.3623418103509336
1.241,0.10844118398484959,-55.895620915540505,-16.44625055806637,-0.30520883800859355,-0.07120104157814211,0.356079458044552
1.2507,0.10600747325694027,-55.99229194040393,-16.45849563526776,-0.3007302245533605,-0.0696150407101106,0.34827482426010037
1.2603,0.10328434696408495,-56.07157133838015,-16.46878988828925,-0.2945981412432719,-0.0678077149599643,0.33939578712219853
1.2702,0.10033269938657607,-56.13072635036513,-16.476928139969594,-0.2873510139970361,-0.06582885274006234,0.3297248663796928
1.2802,0.0972522508327267,-56.17901793397206,-16.484400393376344,-0.2793587875599668,-0.06374302715764735,0.319571532201426
1.2903,0.0940809508012932,-56.213325853890325,-16.490409848326845,-0.2708843609035543,-0.061599515239753266,0.30913826873132033
1.3002,0.09087805498641144,-56.2372724636814,-16.49604519197599,-0.2621275170765922,-0.05941768336011233,0.2985667297672032
1.3102,0.08767125829614031,-56.248505087305425,-16.500854021349223,-0.253239394874035,-0.05724066550034479,0.28801054598571707
1.3203,0.08448842222612463,-56.24762783421214,-16.504944368523503,-0.24435366068010467,-0.05507762265153193,0.2775470287654822
1.3302,0.08136099843443567,-56.23594240646957,-16.508478314438683,-0.23541757316728917,-0.052959089707687035,0.267273763209805
1.3402,0.07828935793269176,-56.212437533170764,-16.511776482415513,-0.22679539412529204,-0.05088087416832909,0.2572285248963656
1.3502,0.07529327773049088,-56.17774526559056,-16.514256715622246,-0.21809169734653722,-0.0488642963547079,0.24743071481562529
1.3605,0.07237956724719918,-56.13368006880821,-16.516603482544927,-0.2098086575771667,-0.04691059477644188,0.23795878493865563
1.3702,0.0695970914268349,-56.078039068390325,-16.51861032450038,-0.20164857040696305,-0.04504194817403473,0.22889033208306186
1.3801999999999999,0.06694975479290566,-56.00884473080749,-16.520738338424195,-0.19389350250267645,-0.04326202526643019,0.22028323352046197
1.3902,0.06442022840562078,-55.93438980906769,-16.52242756132597,-0.18656559520574012,-0.04157257403429604,0.21209726920418626
1.4002,0.0620381814217863,-55.849993624085336,-16.524085822465047,-0.17961636296767747,-0.0399768672888543,0.20438739101392445
1.4102000000000001,0.05962613500547409,-55.75678047935129,-16.52601467144852,-0.17332418848878062,-0.038406276298578845,0.19680156069169708
1.4202,0.05731578335999288,-55.65608149194547,-16.527528930821745,-0.1667959446449414,-0.036881524539237986,0.18941667612306468
1.4302000000000001,0.05511785116142587,-55.542508842538474,-16.529292050102534,-0.1607052839880052,-0.03543544201567084,0.1824357157483727
1.4402,0.053060901987218134,-55.41682109241752,-16.53121132154221,-0.1548963166080739,-0.034061623905764726,0.17584779187235378
1.4508,0.051125147871287524,-55.284562481736515,-16.53325167142072,-0.1495521277748515,-0.03277053506721561,0.1696848873831791
1.4639,0.04932915907843771,-55.1353220899942,-16.535691563487998,-0.14455549601864615,-0.03155484099424566,0.16392292144039944
1.4724,0.04762155577181071,-54.97590070177579,-16.538665704769237,-0.14024028554867396,-0.030401471211514597,0.1585284851309534
1.4813,0.04586001954294572,-54.80841743457696,-16.541808943791256,-0.13625958517654535,-0.029276410212397685,0.15318041268474525
1.4923,0.044219136717578156,-54.634491627516795,-16.544976274558856,-0.13218112602475118,-0.028192602520153542,0.1480387978785912
1.5039,0.04238058169551584,-54.453292894747946,-16.548559938114,-0.12861315003329565,-0.027088649497868822,0.1427017020412979
1.5181,0.04027597343192468,-54.26420251085605,-16.552515671165278,-0.12521586611238744,-0.025916992026324692,0.13690464697905796
1.526,0.038395317147864816,-54.39692066706558,-16.54668804083007,-0.11945287009525662,-0.024876649892461522,0.13177505495097458
1.5303,0.036744574190081813,-54.59084156553855,-16.53851506796345,-0.11229236935716047,-0.023843059467483663,0.1268146284489185
1.5402,0.03544005677294049,-54.78742732257134,-16.53003974629312,-0.10503042040135435,-0.02289777213019395,0.12255104611980344
1.5502,0.03442828747085658,-54.97588935497452,-16.522052879728612,-0.09844377176556884,-0.022096567966226388,0.11904845316460849
1.5602,0.033540991511623375,-55.160666557859074,-16.514466048296665,-0.09278041624087541,-0.021414006349552928,0.11611378529276434
1.5703,0.03275559723357713,-55.35072447822231,-16.506739172732882,-0.08758576165374832,-0.020817045324378114,0.1135835683668972
1.5859999999999999,0.03160687304873333,-55.53399811615772,-16.499073752967696,-0.08308920288170807,-0.020217005488134987,0.1107565634008677
1.5994000000000002,0.030795341275410948,-55.71838973588721,-16.491169013851447,-0.07810938235509735,-0.019641909075303943,0.10822445897503097
1.6038999999999999,0.03007044207424503,-55.89676879106776,-16.483198821865866,-0.07352422846300133,-0.01912702597012661,0.10598984669096445
1.6107,0.029658040333583546,-56.0361078085727,-16.476223257595084,-0.06926891682635583,-0.018650516842029674,0.10415416982622405
1.6202999999999999,0.029199007463063698,-56.134537304324915,-16.47027957167943,-0.06617812059614758,-0.01827377163198296,0.10262212382893743
1.6301999999999999,0.028843997597052695,-56.21684765096353,-16.464283746892356,-0.06337100717978217,-0.017948661636196128,0.10131116965868403
1.6402999999999999,0.028503623282465362,-56.27975466651118,-16.458300106993594,-0.06101465186354105,-0.0176754157807526,0.10017006700257791
1.6502,0.02821552811225736,-56.32364946974784,-16.452283823519387,-0.05895479378247126,-0.017441431334630053,0.09917156876466915
1.6602000000000001,0.027952901829381815,-56.35286957350911,-16.44596404903081,-0.057159867180126334,-0.01724506522807623,0.09829355440482967
1.6702,0.02775838129866104,-56.36594265671113,-16.43918754821461,-0.05554047323705413,-0.017080202895167318,0.09754374614149885
1.6803,0.02757098323916285,-56.36333231531242,-16.432341512234565,-0.05424965572616003,-0.016955646857089057,0.09691313727063577
1.6904,0.027406617970415326,-56.34453934320471,-16.425108001055797,-0.05316014158302407,-0.01685822459029307,0.09636327402999834
1.7003,0.027262364724461197,-56.313020318089855,-16.417532047994722,-0.05224596839740059,-0.016786056944369854,0.09588835617830915
1.7102,0.02713678346646642,-56.26778071287742,-16.40969373044896,-0.051503948507539477,-0.01673558366283512,0.09547844617062407
1.7203,0.027025957158324676,-56.205177640497276,-16.400596090283052,-0.05089548558334123,-0.016705860881876866,0.09512405503114862
1.7302,0.026922047758764833,-56.13564442956471,-16.391643807738955,-0.05043236551793129,-0.016692464577115373,0.09481931313368097
1.741,0.02679419140992234,-56.05189948639823,-16.381936941439687,-0.05012174874571684,-0.016691338040321746,0.09452939504309887
1.7502,0.026697265932634995,-55.955413594474784,-16.37140192010522,-0.04983043232214812,-0.01669617012487734,0.0942497897821849
1.7603,0.0266013755762029,-55.854382239294495,-16.360988732166682,-0.049634614097988194,-0.016706535076537854,0.09399767048591001
1.7691,0.026528078970339486,-55.74071953015074,-16.349782003231116,-0.049505370073261945,-0.016723647015184362,0.09377095779724376
1.7803,0.026478116471979174,-55.6233486659672,-16.33838258234806,-0.04943273575486784,-0.016747645269868272,0.09358724712515909
1.7903,0.026443463428924563,-55.497706658461404,-16.326610999247972,-0.04944897298086215,-0.01677847585533243,0.0934404763699147
1.8003,0.026373109942655848,-55.36161541041317,-16.31382615216865,-0.049580377418706634,-0.016813722072111403,0.09329815480052839
1.8102,0.026031175334731316,-55.21621987382696,-16.29992096205835,-0.04997977512592244,-0.016835143872298453,0.09301524068920408
1.8202,0.02585569240947505,-55.07158815656855,-16.28663886193037,-0.04976541344003069,-0.01678979641818401,0.09248633959208774
1.8302,0.025716244295610924,-54.92623986764635,-16.273270261680935,-0.04957813823932799,-0.01673935924145642,0.09200155628289869
1.8401999999999998,0.025584861780992174,-54.772007300913884,-16.259183512264144,-0.04947099497023892,-0.01668866775230171,0.09154296490829072
1.8502,0.025451236102556063,-54.611594407789,-16.244451968036202,-0.04941882440990569,-0.016635169106949732,0.09109480401789777
1.8601999999999999,0.025274589523556212,-54.44320630129344,-16.229155160333107,-0.04943431958648825,-0.016572162426719217,0.09061628928096743
1.8702,0.025074774611367978,-54.27080084774456,-16.21347352732957,-0.04942306528324708,-0.016492485666662837,0.0900772919006752
1.8801999999999999,0.02489263853872936,-54.09303325234804,-16.197333346326104,-0.04937312590045423,-0.016398709743764783,0.08950223638290583
1.8902,0.024705367650686316,-53.91223924565619,-16.180802783171494,-0.04931732703070779,-0.016293665155976633,0.08890384292304526
1.9002,0.02453372131579501,-53.725900841541225,-16.16399679444663,-0.04926637582262178,-0.01618002342479663,0.08829246327756074
1.9102000000000001,0.02435568634371199,-53.531819527734335,-16.146607674178767,-0.04925661399109965,-0.016059470031346557,0.0876720055170947
1.9202,0.024221528152541083,-53.33676185939114,-16.12922238093735,-0.04922900244499234,-0.01593678779787311,0.08706428370096503
1.9302000000000001,0.02405223426496539,-53.13389818102153,-16.111189746434185,-0.049284136263319844,-0.01581060830609715,0.08645909873389501
1.9402,0.02390746384476694,-52.92887582562707,-16.093007342244643,-0.049323008048324124,-0.015682069268791565,0.08585013376574901
1.9502000000000002,0.02375584862142377,-52.71357078463348,-16.074112877349883,-0.04942990305276762,-0.015550986901197383,0.08524621899637197
1.9602,0.02358119910490286,-52.49672602568089,-16.055099173436894,-0.04955078326719686,-0.015415964115453207,0.08462833664859226
1.9702,0.0234756560718532,-52.282108513213956,-16.03651551865834,-0.04962878409596938,-0.015285925227897401,0.08403277648610369
1.9802,0.02332862039127992,-52.05741179750328,-16.01729949554481,-0.049814472255858,-0.015156161076727237,0.08345230740550763
1.9902,0.02310145940765862,-51.82456014846923,-15.997285184318448,-0.0500578489770479,-0.015018815146579989,0.08283943067810551
2.0002,0.022784380952403538,-51.59146524374847,-15.977252443466792,-0.050231645787018,-0.014860884903895588,0.08211492376633656
2.0102,0.02251682281684353,-51.3623130776728,-15.95799744014958,-0.05025108612850804,-0.014688102831712513,0.08130401912574564
2.0202,0.022302422767086494,-51.132036964095455,-15.938840308271033,-0.05025128211622687,-0.014515220298162212,0.08050740546965474
2.0302,0.022104822119793255,-50.89963482309711,-15.919746205295636,-0.05028736315173732,-0.01434686626854731,0.07974363770745391
2.0402,0.0218917519760784,-50.66214399922359,-15.900259007493611,-0.05037082256505587,-0.01418001628823351,0.07899742990512287
2.0502,0.02170037529228752,-50.42056409648802,-15.880839042681488,-0.0504805098629465,-0.01401740307124033,0.0782689652413947
2.0602,0.021516190783912315,-50.176051542202494,-15.861323149437796,-0.05062178718477589,-0.01385955004320838,0.07756532668259836
2.0702,0.021291773260616598,-49.92666563650721,-15.84160135768612,-0.050811893575991474,-0.013700658929353793,0.07686360594399733
2.0802,0.02107986389874661,-49.67250995623891,-15.82172118803622,-0.051006228427330214,-0.013542755802055773,0.07615747860757499
2.0902,0.02086229275739937,-49.4195923942171,-15.80216684941727,-0.05119556037265949,-0.013385600776046225,0.07545282919364027
2.1028000000000002,0.020708090456256656,-49.141344127180005,-15.781069044127328,-0.05147366261390124,-0.013233337484477303,0.0747541582014849
2.1102,0.02026709084097833,-48.85749155401839,-15.759283028302935,-0.051819573443495526,-0.01304379120147825,0.07394731233377094
2.1202,0.019994607871058,-48.59433004955199,-15.73966789062958,-0.051966359579376675,-0.012870305699142826,0.0731415595013708
2.1302,0.019744911315473512,-48.33287164580289,-15.720498486190621,-0.05210551943621322,-0.01269561671409214,0.07235182599761963
2.1402,0.019303628520288107,-48.06978687456524,-15.701065757588166,-0.05228716524560617,-0.01249580792063032,0.0715098655512047
2.1502,0.018963869085911522,-47.81229328061886,-15.682416975145347,-0.05230691174628771,-0.012293365539862044,0.07060092538603158
2.1602,0.01873388882454341,-47.55472996034309,-15.66418570213709,-0.0523082587978298,-0.012101532200986753,0.06973313098761813
2.1702,0.01846909883669845,-47.283830807163014,-15.64526408987453,-0.05243471427746543,-0.011906732998006042,0.06890436938037664
2.1802,0.01827820069485142,-47.02313035242069,-15.627191131544425,-0.05250177448802584,-0.011727192016670607,0.06811620093184562
2.1902,0.018085620182343387,-46.746201795625424,-15.608271358939739,-0.05269060090999461,-0.011550781843816083,0.06737176863595162
2.2002,0.017870393537126716,-46.487529446016644,-15.590832683657585,-0.05283239782332699,-0.011382294923722114,0.0666607378229711
2.2106,0.01769561447646506,-46.227217862556735,-15.57347090393398,-0.05298935943043903,-0.011224224845561181,0.0659847863675464
2.2203,0.01758173803470342,-45.9663138577122,-15.556340194231279,-0.05317005698502292,-0.011082028160367408,0.06536370016676585
2.2302,0.017493462092087686,-45.71419893944676,-15.539821960486414,-0.05336033667446932,-0.010957066981127639,0.06481617503580583
2.2402,0.017417118211573435,-45.45968013818594,-15.523436281473984,-0.05361027014613162,-0.010845163145516423,0.06432290169626009
2.2502,0.017352606887370836,-45.20030979390582,-15.507047165359376,-0.05392752641220566,-0.01074537566470024,0.06387629980778353
2.2603,0.017297456219155904,-44.93481719511007,-15.490280633455798,-0.054305774564164855,-0.010656721056829355,0.06347070458577486
2.2702999999999998,0.017252191707540998,-44.679159150116895,-15.47433489898785,-0.05468333472991643,-0.0105839110937751,0.06312000405740387
2.2804,0.017213558003184914,-44.42208873354599,-15.458554037983916,-0.05510521410326702,-0.01052270479172357,0.06280847858896305
2.2902,0.017180853565725407,-44.1671286549055,-15.443001193192169,-0.05555021219997536,-0.010473362206112835,0.06253670644242765
2.3004,0.0171527044254145,-43.912005477976244,-15.427755441505193,-0.05603279062688543,-0.010434479634827909,0.062299505292003565
2.311,0.017129479394150104,-43.63944276299527,-15.411525851621818,-0.05661670151538856,-0.010401920853120306,0.06207529241816101
2.3225,0.01710092463744295,-43.35358283057193,-15.394774021127434,-0.05729763478717381,-0.010374928351607693,0.06186716529482178
2.3326000000000002,0.016897118447922077,-43.058902935594595,-15.377436780388111,-0.05805388563730626,-0.010323728343763161,0.061609156871100634
2.3402,0.016712180072180338,-42.7767973322509,-15.361321245205389,-0.05871699390403115,-0.010278608395762223,0.06133411198536448
2.3502,0.016559431632334976,-42.52090866680459,-15.346752972601118,-0.05922612227794291,-0.010236516528694395,0.06106832298673187
2.3603,0.016505495173132267,-42.2602588994438,-15.332373736432029,-0.059725093170787225,-0.010208167753729569,0.06080894666731035
2.3702,0.0164055818925124,-42.002415103465616,-15.318097662499987,-0.060256713281597374,-0.010172767638388258,0.06057647542621031
2.3813,0.01634602127443796,-41.73540547292985,-15.303735561524979,-0.060822063810806265,-0.010144160033426441,0.06034088367723095
2.3902,0.016220274889748865,-41.47836374392573,-15.289647876222839,-0.06136122184023779,-0.010104770930867701,0.06011185948178116
2.4006,0.016162856599055253,-41.21940042434421,-15.276003694703745,-0.06189893971946389,-0.010076845855435224,0.05989102101747207
2.4103,0.015983753249461108,-40.95562670856071,-15.261941329413256,-0.062486299815638996,-0.010025447470822346,0.05965004619685721
2.4206,0.015622470187944826,-40.71226884802531,-15.248712467957775,-0.06301467750426029,-0.00994092364495991,0.05939523572902394
2.4318,0.015495809747800848,-40.47056866129243,-15.23600302553225,-0.06333061788839586,-0.0098857839390738,0.059033164270716254
2.4402,0.015477730938090462,-40.225930560209186,-15.223445493880453,-0.06368528267891514,-0.009839905084114697,0.058723194751488184
2.4504,0.015325348953083795,-40.02197969817238,-15.212740005048328,-0.0639044774684666,-0.009769442500688008,0.05844080368460591
2.4606,0.015409466082622947,-39.81312749331015,-15.202196436191885,-0.06409089972217603,-0.009737206665549447,0.05819084052385126
2.4704,0.015368824744471432,-39.60676964074797,-15.191312198305615,-0.0643676693342377,-0.009683924432597468,0.05799629317555799
2.4802,0.015269583649106355,-39.411320726399154,-15.180971380543811,-0.06461261759675624,-0.009624978302964049,0.05779856902762609
2.4902,0.015251910278187397,-39.2231003344195,-15.170880397826705,-0.0647924413734145,-0.009580601837737568,0.05760711308427746
2.5003,0.015246958019873302,-39.04352614999039,-15.161149277331575,-0.06495576496720525,-0.009540438211989688,0.05744295727328752
2.5103,0.015192776943315334,-38.857883794424694,-15.150875329504965,-0.06517556808048208,-0.009491025766144912,0.05728045229686002
2.5196,0.015168456804112607,-38.68499185449559,-15.141292711579467,-0.06533550533541033,-0.00945054766556197,0.05712517299763181
2.5305,0.01513181337782643,-38.50364687278984,-15.13098104606589,-0.06554571046817755,-0.00940671883936739,0.05697038262261833
2.5408,0.015043406832322859,-38.332990596406866,-15.121027092721924,-0.06573038390051346,-0.009355981747963149,0.05681083938209497
2.5505,0.014714153175461986,-38.164489120272926,-15.110643347613399,-0.06596053206341403,-0.009257860118705441,0.05659663807803489
2.5606,0.014578281292977557,-38.00221061233955,-15.100934988893695,-0.0660017047879249,-0.00918837290342589,0.056304436135217295
2.5703,0.014082833671781092,-37.84192849602114,-15.090582433571516,-0.06614430502197904,-0.009041242711299802,0.05594959846059816
2.5802,0.013919165806292488,-37.68824547573944,-15.080661901253311,-0.06599283143960753,-0.008944869704425873,0.05549940170449952
2.5902,0.013798077058875036,-37.54606733578126,-15.071323622790946,-0.06580582419056814,-0.008845429886602307,0.05507258156854633
2.6002,0.013725603008423404,-37.4048263200701,-15.06196247011759,-0.06562718878614193,-0.008752856246357243,0.05467388200323414
2.6102,0.013673009418950333,-37.26778755355401,-15.052335822662158,-0.0654525341897492,-0.008664384607983688,0.0543082107505391
2.6202,0.013622070359524452,-37.13139796427813,-15.042442888806429,-0.06530748801881847,-0.008576734862215218,0.05397039771071954
2.6305,0.013596170351779513,-37.00179549504584,-15.032578352295092,-0.06515129277329829,-0.008497789719830617,0.05366149712146173
2.6408,0.013543089450724022,-36.875506709463366,-15.022525364678604,-0.06502147487997506,-0.00841673200147719,0.053376317593894995
2.6518,0.013529202568942633,-36.75798498380455,-15.012640807229921,-0.06485651952391616,-0.00834929214523461,0.053114485870804085
2.6624,0.013539601673874468,-36.635094369519884,-15.001649068902513,-0.06471578442426038,-0.008287306361012714,0.05287257176120569
2.6702,0.013461862971346106,-36.51805197754086,-14.990465788999796,-0.06461615091211131,-0.008214065558007189,0.052650752606427986
2.6802,0.01338696197360889,-36.41455873123355,-14.980038221290691,-0.0644662759121836,-0.0081504940246937,0.052432271874985836
2.6902,0.013371775523096208,-36.31916481151919,-14.969407975280868,-0.06425369656449256,-0.008103805513299367,0.05223135280573876
2.7002,0.013348767310565224,-36.22933749968697,-14.958626971735711,-0.06404455088892792,-0.008060510962073053,0.05205406246977051
2.7102,0.01335774537269896,-36.14616316350203,-14.947862476276757,-0.06381583660710129,-0.008030166995451893,0.05190270090167731
2.7202,0.013367076491632046,-36.069695727598,-14.936512466812902,-0.06357375419430465,-0.008006588829730266,0.05178076835961509
2.7302,0.013370197805994577,-35.999759917210376,-14.925097426244566,-0.06333276430252656,-0.007989092829934208,0.05168437595584385
2.7403,0.013346445088282533,-35.93729383944229,-14.913187300071472,-0.06308017555667288,-0.007973302528856419,0.0516067249105614
2.7503,0.01334612656410239,-35.87870834402234,-14.900578669766158,-0.06279996389203901,-0.007968075054181067,0.05154530445789768
2.7603999999999997,0.013357035184509147,-35.82721462894056,-14.887303383554544,-0.062487146509201445,-0.007970672750194918,0.05150587474406049
2.7708,0.013387913465996437,-35.78242851471383,-14.873617889165331,-0.06214834886781418,-0.007983305083858916,0.05148982544079539
2.7803,0.013416685197118028,-35.748464013299525,-14.86054890746399,-0.06180694458913859,-0.00800240729008328,0.051505476172510944
2.7902,0.013455963430991424,-35.72270523570447,-14.847360002595263,-0.061447777644691635,-0.008030050011585299,0.051549547279896024
2.8003,0.01349936187201628,-35.70420184076449,-14.833623436220597,-0.06106733598661584,-0.008064421271556821,0.05162018199912982
2.81,0.013562838065009464,-35.69183849163506,-14.818936622560594,-0.060650866137801525,-0.00810904950086444,0.051715453673365996
2.8202,0.013616853522850692,-35.687834882238455,-14.804729763213839,-0.06025066088339982,-0.008157257867018153,0.051843749611418743
2.8302,0.013673897438282623,-35.69079912518015,-14.789789125905564,-0.059822567325884535,-0.008211628335604182,0.051995235439110166
2.8402,0.013731490901464527,-35.70065053664356,-14.7740668448527,-0.059366309193039174,-0.008271060970134858,0.05216871811047419
2.8502,0.013799114574368776,-35.718099909054885,-14.757089948166199,-0.0588554804776041,-0.008337801081923946,0.05236360547903979
2.8604000000000003,0.013888099727109582,-35.74143566323757,-14.740135089613618,-0.05834072641917726,-0.0084125723497106,0.05258498661377342
2.8716,0.013961578345290215,-35.773344625781114,-14.721305873932803,-0.0577687131175081,-0.008489139048200478,0.05283093479865797
2.8806000000000003,0.014129556068762428,-35.81210652830336,-14.70179383972807,-0.057142092686348234,-0.008590067945224877,0.05312103626161302
2.8908,0.014239249813850385,-35.85594572654062,-14.682423457537354,-0.056564911803514306,-0.008682479630335305,0.0534396459876233
2.9011,0.014326626854044955,-35.90833546645194,-14.661352160330557,-0.05593305440324303,-0.008776866862640897,0.05377919939125525
2.915,0.014411080172816337,-35.9676513542322,-14.63921832077112,-0.05525458638721878,-0.008875048399772378,0.05413244105364917
2.9207,0.014521024103804292,-36.037535615756745,-14.614671884050097,-0.05445770031297559,-0.008983611816554049,0.05450567659564892
2.9302,0.014749739716656274,-36.10299447671115,-14.593208252772259,-0.05377098105901468,-0.009114450295239607,0.05492738084260579
2.9403,0.01493538253689164,-36.17439523223689,-14.570607929907379,-0.05308944602158877,-0.009241595545883108,0.05538423986868812
2.9505,0.015075596077645192,-36.252697130450635,-14.546592403229086,-0.05238850021739824,-0.009365314487341792,0.055868292963570876
2.9602,0.015186140703663753,-36.3329546120009,-14.522557262825181,-0.05170873508064111,-0.009485997699900661,0.05636090835669855
2.9703,0.015313852676474893,-36.42011484686951,-14.496876291764597,-0.050940171424160796,-0.009612964732500728,0.05685910840243025
2.9802999999999997,0.015448783289625512,-36.51280081326242,-14.469858606754725,-0.050110663157114266,-0.009742662246285949,0.057367216684671596
2.9901999999999997,0.015593501307215485,-36.60733921063278,-14.442499229293121,-0.04927341385734946,-0.009874264900218144,0.05788819453156557
3.0,0.015764794515611857,-36.703418057661175,-14.41472999216517,-0.04842189520049717,-0.010011516190314484,0.0584276378719939
3.0102,0.015926737210104402,-36.80712593889367,-14.384625423246689,-0.047483128430244215,-0.01014949795174136,0.058979418611589673
3.0202,-0.036726561302686145,-36.826908601276216,-14.347533288870851,-0.057040658117381515,-0.04087489697501745,0.059496003688884413
3.0302,-0.10296717236949826,-36.831034405532854,-14.307800442506519,-0.06964408125516475,-0.079259601992685,0.05960941662731756
3.0402,-0.1670100956021554,-36.83862637145737,-14.271625648921288,-0.08232808404636788,-0.11576345872170313,0.05799378071411443
3.0502,-0.2288480988323831,-36.85473862181766,-14.240176657749895,-0.09563160318482955,-0.1500386549928283,0.05361745582309818
3.0602,-0.2898473531698873,-36.877887820415616,-14.212053288527375,-0.10896892014779164,-0.18293445576468859,0.046690985252101136
3.0702,-0.3462026966850733,-36.89808386102456,-14.186094386793476,-0.117694316158302,-0.2125262248507176,0.03820026843421487
3.0802,-0.4006227126152633,-36.909171035106795,-14.158582849626963,-0.12071443769086848,-0.24086301395891896,0.02962740796985197
3.09,-0.45771200733983974,-36.91402065416121,-14.127423200589657,-0.12100547249466465,-0.27095242617018256,0.021968117950297072
3.1002,-0.5086121123061813,-36.91534107055349,-14.098727679492141,-0.11819153148571437,-0.2977431166853983,0.015501165569044018
3.1102,-0.5563279872245177,-36.918332848153334,-14.072380378072948,-0.11463078837562068,-0.32286582230677086,0.010010945050984987
3.1202,-0.6004814750743368,-36.925540687404165,-14.049296008201413,-0.1109069138704934,-0.34602112480357583,0.005266856133872566
3.1302,-0.6384887427020698,-36.93687774058818,-14.031074890569581,-0.10592893297180495,-0.3655964237208038,0.0010078691384659555
3.1402,-0.6752189101525223,-36.95000620793552,-14.014174905794167,-0.09924958548788831,-0.38436412155938626,-0.0029585113843223487
3.1502,-0.7104185963685015,-36.96453734526294,-13.998505142609222,-0.09029415370452099,-0.4021115275394549,-0.006804078567085647
3.1602,-0.7428575940900441,-36.98036130787727,-13.984884974998272,-0.07854249921197015,-0.41807964655605057,-0.010654361013420655
3.1702,-0.7731477051973379,-36.9979363646862,-13.973251012125488,-0.06424326781100265,-0.432570149904401,-0.014613914185658272
3.1802,-0.8021485092219527,-37.01683986433555,-13.962822510418839,-0.04692546451737695,-0.44608389438092866,-0.01877141598248122
3.1902,-0.827938800842593,-37.03692317813881,-13.954883521461026,-0.026226690614936432,-0.45739935219209116,-0.023175883363091287
3.2003,-0.8523276765973504,-37.058697330798914,-13.948470211472014,-0.0024859890174642185,-0.46761895982595325,-0.02787596090941513
3.2102,-0.8737393357204064,-37.081783304840854,-13.944632648606714,0.024729273297440735,-0.47573976668484486,-0.03290427026392684
3.2202,-0.8935809569104667,-37.106280096239296,-13.942504104876898,0.05530989308032419,-0.4826241630005912,-0.0382980239153502
3.2304,-0.9110410130149145,-37.131993077914785,-13.942692195471556,0.08938559209023711,-0.487725776077772,-0.044080565150779294
3.2402,-0.9273194221544616,-37.15901780691428,-13.944454246902497,0.12690891794551556,-0.49182193883487146,-0.05026385821252932
3.2502,-0.9415975527244087,-37.18710418596696,-13.948316663194031,0.16803356815665593,-0.4943062124464488,-0.05687058795888178
3.2603,-0.9547477427898257,-37.2162716520429,-13.953754055245106,0.21269466005090948,-0.4957855723470268,-0.06390581095955927
3.2702999999999998,-0.966345697700737,-37.24617178116916,-13.960961810352671,0.261290325162083,-0.49590662270475727,-0.07139081660297553
3.2803,-0.9767871356667104,-37.27757340924732,-13.969974093938646,0.3130013417073197,-0.4949549083389786,-0.07930983069384723
3.2902,-0.9861872914943124,-37.30949298336131,-13.980380892410182,0.3687164894630695,-0.4929685546263469,-0.0876905350563485
3.3002000000000002,-0.9946520353356183,-37.34230346790361,-13.992253058902477,0.428150608629116,-0.4900238477863583,-0.09652333589657447
3.3102,-1.0022599446231215,-37.376129258554265,-14.005576348241807,0.4910619057473831,-0.48617309380061613,-0.10581097317613386
3.3203,-1.0090600680146053,-37.41082926376967,-14.020289329391487,0.5575819298480709,-0.48145708958272015,-0.11553163709643677
3.3302,-1.0150388629457197,-37.44612910832993,-14.036269833229367,0.6279410447650946,-0.47587622466635393,-0.12572889583700408
3.3402,-1.0204032080454137,-37.482248273202714,-14.05343161508861,0.7019890479081455,-0.4695013111556454,-0.1363779825584428
3.3503,-1.0252252936196942,-37.51939007185327,-14.071691177494262,0.7796040923919747,-0.4623590782496456,-0.14747941350354155
3.3602,-1.0293665825486653,-37.55727846378219,-14.091107802862812,0.8607345447197571,-0.45444272998758484,-0.15901912349440095
3.3702,-1.0327312883776705,-37.59559363636884,-14.111598625855727,0.9457979969235176,-0.4457078171880684,-0.1710097220457878
3.3802,-1.0353461056339754,-37.634551423260895,-14.133171135661945,1.0344923934231385,-0.43616571567689544,-0.18343814041054196
3.3902,-1.0372783432646309,-37.673993841810166,-14.155633880144043,1.12704928380329,-0.42584777377777483,-0.19631079841348897
3.4002,-1.038894082360265,-37.714630888413446,-14.178872981528462,1.2228860841321494,-0.41490899832087047,-0.20960368537209872
3.4102,-1.0398558514998872,-37.75584715987833,-14.202891274881232,1.3224653499291659,-0.4032222187625818,-0.22331816804599625
3.4202,-1.0401144404425786,-37.79764686811191,-14.227687694764821,1.4256832965411286,-0.39077054598923855,-0.23744324354550977
3.4304,-1.0397853829494723,-37.84017107166396,-14.2531293348376,1.532467836595393,-0.3776136118736555,-0.2519705272139104
3.4402,-1.0389108368305062,-37.88339882154613,-14.279144129553442,1.6428367532468102,-0.36377458134146234,-0.26689393515402104
3.4502,-1.0374979791040362,-37.927440020031355,-14.30563318283282,1.7566526056353544,-0.3492586574770611,-0.28219670173216127
3.4602,-1.0354747402674587,-37.972188951509665,-14.332586518353496,1.873825795319981,-0.3340528416229116,-0.29786754283651407
3.4702,-1.032619016785362,-38.017415261175394,-14.360033405909705,1.994523475329195,-0.31806626989840536,-0.31388980463607785
3.4802,-1.0275323970270638,-38.06208647225163,-14.388574335570656,2.119349646952549,-0.3006640808063019,-0.3302577088059805
3.4905,-1.0216122129219223,-38.10772688766996,-14.417613369331708,2.247072232097948,-0.28242540548039985,-0.34692902727217056
3.5066,-1.0139193986430548,-38.15281011613544,-14.447175280768901,2.3793754733043633,-0.2630336684834993,-0.3639929121274662
3.5117000000000003,-1.0028577147457067,-38.19708837072998,-14.478075730634686,2.5152356348421523,-0.24161602799281878,-0.3814166242060243
3.5202999999999998,-0.9935480755612174,-38.24364760175032,-14.507880127645603,2.6536887602916854,-0.22073155881486173,-0.39916841699878836
3.5305,-0.9848246556263571,-38.29103249654288,-14.537721194754706,2.79489340583035,-0.19960660988053247,-0.41711411730068826
3.5402,-0.97764504819813,-38.34095641721194,-14.566154272193224,2.937312375647888,-0.17911032289177786,-0.4353958007544618
3.5504,-0.9712209199317752,-38.392154292633286,-14.593675699778156,3.082755569689466,-0.1586899950171623,-0.4539585162929026
3.5602,-0.96455857053887,-38.44400880883656,-14.620821952760116,3.230852558608262,-0.13790657062153278,-0.47271946502885553
3.5702,-0.9578697965886378,-38.49662738412917,-14.64747339311756,3.381260796963262,-0.11687456944208963,-0.49166065424138994
3.5802,-0.9497424777888765,-38.549082559758986,-14.673993474108904,3.534464715807127,-0.09491906446597209,-0.5107717072995802
3.5903,-0.9389878494005632,-38.60055341524533,-14.700804130617819,3.6912202885803875,-0.07150995382050196,-0.5300047865510552
3.6,-0.9302468394911516,-38.654468736704345,-14.726407708568706,3.8489489271872,-0.048772180298020995,-0.5494327204285592
3.6104000000000003,-0.9199478512665014,-38.70841047571463,-14.751873148036527,4.0094286659149025,-0.02508823418896311,-0.5689740259935601
3.6203,-0.9095161003596881,-38.762923779678495,-14.776604381681622,4.171597952811298,-0.0011584830703790239,-0.5886238634576217
3.6302,-0.8979967070419348,-38.81758470543924,-14.800910355391567,4.335778566229668,0.023478726325133703,-0.6083460803480433
3.6403,-0.8839005898670358,-38.87174125053218,-14.824912412673193,4.502753641476853,0.049558023972969156,-0.628141219019841
3.6502,-0.8725011887261052,-38.92749864880169,-14.847469106600133,4.669759984198353,0.07447043997937097,-0.6480208729662575
3.661,-0.8595960463770236,-38.98330154696985,-14.869651158032623,4.838860654012659,0.10022851718612369,-0.6679133896310763
3.67,-0.8476305732384384,-39.03945669597647,-14.890843966539357,5.007409625074456,0.12558693083544137,-0.6877988531140785
3.6802,-0.8349999327101318,-39.09565703844223,-14.911143584972852,5.178168057593779,0.1513719457108489,-0.7077119882742324
3.6901,-0.821998863057013,-39.15151490154457,-14.930690113779127,5.348141290098605,0.1773776952572903,-0.7274357888266527
3.7061,-0.806121734291618,-39.20729675214495,-14.949727541081128,5.5226220076290256,0.20496015157667236,-0.7472456599250693
3.7180999999999997,-0.7864431627793254,-39.263431722462066,-14.96863159283487,5.699674877844729,0.23452623413035978,-0.7669982789186073
3.7307,-0.7637584677484865,-39.320324654214474,-14.986946796463085,5.878287214239862,0.26573006445441516,-0.7866902244226002
3.7382,-0.7397273608097645,-39.37855037466038,-15.005145485270926,6.058837855266076,0.2978032237357464,-0.8064592306785653
3.7439,-0.717022093756587,-39.43768192396321,-15.021740776718541,6.2383526898948345,0.32930157853062214,-0.826129139254997
3.7508,-0.6993924515454939,-39.49679702549647,-15.036336657148254,6.414833828209162,0.3581285324047312,-0.8457482552306438
3.7603999999999997,-0.6871534819386014,-39.5547671378149,-15.048718490694203,6.5877650790078714,0.3839640798707782,-0.8652186109438368
3.7704,-0.677196279411153,-39.61230475648057,-15.059903260616933,6.759612741845296,0.40845280194015743,-0.8845378081601438
3.7802,-0.6661467984575069,-39.669327377159554,-15.070361073098185,6.931588571326181,0.4334079150820518,-0.9036042034931137
3.7907,-0.6563213489028763,-39.725413498440524,-15.07949120981438,7.10182214608489,0.4575614544515334,-0.92242699621544
3.8005,-0.6453376654421985,-39.781716598301955,-15.087840327875242,7.2725808933983505,0.48217034127440384,-0.9410113921008345
3.811,-0.6346753712579094,-39.83738714765706,-15.095351128046879,7.441707236584935,0.5065309229646227,-0.9593502601697479
3.8202,-0.6227527129242034,-39.89351361217199,-15.102173731535833,7.610946793311707,0.5314269491577019,-0.977437067254185
3.8306,-0.6149394573481264,-39.9474620511988,-15.107447053999838,7.775380295529025,0.5539880515322109,-0.9952501253381165
3.8402,-0.6060690161140323,-40.00162613800043,-15.112142071973304,7.939546584801068,0.5769479708141745,-1.012792910581053
3.8502,-0.5959223847569459,-40.056026810852984,-15.116260098111246,8.1032080581904,0.600441795395878,-1.0300256189183554
3.8605,-0.5842308965100487,-40.11116499838717,-15.119735265557717,8.266482837765038,0.6246364530924806,-1.0469595904976572
3.8702,-0.57400431795371,-40.1650068206926,-15.122442783402516,8.426422428897094,0.6479103422344661,-1.0635900149782236
3.8802,-0.563183400927588,-40.21925973628104,-15.124405236742891,8.585329985250784,0.6713118507489488,-1.0799394933192557
3.8902,-0.5541490129034154,-40.271726633946905,-15.125481624715782,8.740462301557193,0.6935559698371212,-1.095973055745731
3.9002,-0.5438459039281693,-40.32509318539653,-15.126193733416393,8.89502344898554,0.7163079487120259,-1.111684237015278
3.9103,-0.5349660800317451,-40.37696767082897,-15.125832222759044,9.046024838350977,0.7380448942483744,-1.1270538219324673
3.9202,-0.524501625378305,-40.4291497859812,-15.124953828233512,9.195758640133409,0.7605027867108269,-1.1420710350722436
3.9303,-0.5138860708251825,-40.482035143765984,-15.123848603775867,9.343917388467787,0.782848648772434,-1.1568034428558807
3.9402,-0.5066198309120644,-40.53194890280617,-15.121955439408735,9.486985310228981,0.8030272621692189,-1.1712008764421702
3.9503,-0.4979755480769221,-40.58262638770215,-15.119598790242721,9.628788744234349,0.8237457790206966,-1.185236996296718
3.9591,-0.48753047882000744,-40.63457626304425,-15.116831388646807,9.76939983340199,0.8452331886123758,-1.1988910730820657
3.971,-0.47634035679948505,-40.68712229737317,-15.11391483532633,9.908068081776612,0.8669287045132852,-1.2120793061410597
3.9802,-0.4665772566084261,-40.73895135305902,-15.10969680668978,10.043425773773647,0.8875527200683475,-1.2251371572566336
3.9904,-0.45994237535757576,-40.787583385112164,-15.105296446980375,10.173831843292508,0.9061000088948488,-1.2378623524796095
4.0002,-0.4530051969860598,-40.83629482600249,-15.100883847875997,10.301990546349133,0.9245616000963031,-1.2502442207078261
4.0101,-0.4468523819686965,-40.88467413015715,-15.095970150634471,10.427228555875937,0.9422423122320436,-1.2622814889987886
4.0204,-0.4408588128366584,-40.93245327844144,-15.090845978495866,10.549515285346738,0.9595310111323014,-1.2738682995341066
4.0302,-0.4361382517742902,-40.97872537046351,-15.085226847062298,10.668034157646584,0.9757437313420629,-1.2851974072781707
4.0406,-0.43100834446610237,-41.02396514962129,-15.078897382267838,10.783564636032354,0.991797721573767,-1.2961373748414333
4.0502,-0.4267822360211835,-41.06989346103645,-15.072479406367322,10.896496910170661,1.0070646823847338,-1.3067763614530816
4.0608,-0.42378062997612465,-41.11426355648647,-15.06595881971335,11.005627436422879,1.0212666557266297,-1.31707625486953
4.0705,-0.4207437220346266,-41.15984446539012,-15.059033798566933,11.112624494321306,1.035167084232445,-1.327054989804396
4.0802,-0.4188680579808206,-41.20311626859385,-15.051822976102763,11.215364929455722,1.0480108146501874,-1.3366592231747796
4.0904,-0.41647831360780985,-41.248262048245785,-15.044521677588845,11.316485185504112,1.0608621916067777,-1.3459742616068928
4.1006,-0.41653937024738785,-41.28989105899929,-15.036833236761998,11.41243192542284,1.0718223332163257,-1.354927799169462
4.1111,-0.4170406663348867,-41.33027038053141,-15.02906238939201,11.5050333128852,1.0821437041977755,-1.3635388867122484
4.1209,-0.41829011079069334,-41.37040913774928,-15.020761400150061,11.594517454593943,1.0916404949916467,-1.3718095801549006
4.1303,-0.4212697034190005,-41.40766873629171,-15.012363029757786,11.679503503563815,1.0996847396379161,-1.3797435887887266
4.1404,-0.4250174704109717,-41.443838117871806,-15.003755700657369,11.76109056565209,1.106875621580627,-1.3873418710504049
4.1502,-0.4302781228872814,-41.478589845989546,-14.994714980486703,11.83888231681341,1.11273768610701,-1.3946002879519994
4.1605,-0.4353987909688122,-41.51430423561754,-14.985475097070331,11.914600630458509,1.118280907833677,-1.4015679297319754
4.1707,-0.4420215334623412,-41.5494226013476,-14.975737018438174,11.986714251863738,1.1225488128668295,-1.4082284846227537
4.1803,-0.45008499043782635,-41.5817671922495,-14.965819388573417,12.054479962162747,1.125524382260311,-1.4145577529710105
4.1901,-0.459080128226121,-41.610712069006546,-14.956041140443592,12.118017737410154,1.127460340757797,-1.4205382649227516
4.1999,-0.4696168202716251,-41.6372320537379,-14.946066916607078,12.177400240401749,1.1280648560982562,-1.4261952776960714
4.2102,-0.48144281088463226,-41.66194690825208,-14.935809104669335,12.23308272261889,1.1274424673684116,-1.4315327204794293
4.2193,-0.4945790430126511,-41.68483216569952,-14.925287923241207,12.285043478145893,1.125596464689731,-1.4365564200288001
4.2302,-0.5085928521483623,-41.706361774829816,-14.914607273780158,12.333634079986652,1.1228145018879248,-1.4412811464038926
4.2402,-0.5243297878895852,-41.726735328915105,-14.903360345211713,12.378698857787235,1.1185428340146915,-1.4457102884224022
4.2501999999999995,-0.5413642567252648,-41.74489554061108,-14.891927087206756,12.419949270815238,1.11305889718144,-1.4498318511693657
4.2602,-0.5595964655606472,-41.76235009457902,-14.880138032739847,12.458110534245487,1.1064367491935885,-1.4536832529884227
4.2702,-0.5791759010660067,-41.77794979495915,-14.868075885528338,12.492644469787646,1.098584445643806,-1.4572492545590208
4.2802,-0.6000246642996017,-41.792100960241356,-14.855778829226786,12.523835885395007,1.0895532275854274,-1.4605415469651983
4.2906,-0.6236113645711899,-41.80612719931569,-14.842364317587645,12.55179442830611,1.0783974970694583,-1.4635810965368898
4.3012,-0.648588329295246,-41.81892269391151,-14.82863167738406,12.576486611344194,1.0660042491002653,-1.46636614362306
4.3116,-0.6747676599799091,-41.829900353054654,-14.814728748157863,12.597814380545548,1.0524943104774227,-1.4688927459145134
4.3269,-0.7043415430280392,-41.840353079375866,-14.799481593022659,12.615686342880164,1.0364464641151594,-1.4711783246229466
4.3336,-0.7378543134042669,-41.85055359117669,-14.782655724667872,12.630030909123146,1.017507755897193,-1.4732253851195278
4.3433,-0.7722609739208963,-41.858884783643425,-14.765814591005746,12.641193381200736,0.9976696131330529,-1.4750358115850601
4.3535,-0.8076540148517469,-41.865206919728486,-14.748891431711701,12.649268318401955,0.976883912381382,-1.4766158454729827
4.3603,-0.8444700841471107,-41.87007016341875,-14.73163318381929,12.65441118035432,0.9548717101800914,-1.4779712622401808
4.373,-0.8830269479767306,-41.873175123650135,-14.713941958978246,12.656546807780627,0.9314302249471673,-1.479115876482155
4.385,-0.9247194183341766,-41.874183527471544,-14.69572578530203,12.655299143357764,0.9056880324080261,-1.4800318445018865
4.396,-0.9692107149238163,-41.8745883794965,-14.676002622648882,12.651130332996376,0.8777916107094992,-1.480768927160449
4.408,-1.0169246458470709,-41.873742605095586,-14.655005390414809,12.643817520718471,0.8475454922239276,-1.481319521057175
4.4175,-1.068397833000305,-41.87161044471526,-14.632525063227963,12.633279941756815,0.8146064917866518,-1.4816851262084834
4.43,-1.1216228205629066,-41.86812262171533,-14.609605830210963,12.620280730289487,0.7802680640630584,-1.481886970920755
4.4376999999999995,-1.1784677096334206,-41.86405291662148,-14.585338095412268,12.604645605505741,0.7432620976894055,-1.48194453242095
4.4481,-1.2368378585019666,-41.85834824766868,-14.560583218123192,12.5866917324343,0.705035525373642,-1.4818695496604257
4.454,-1.29698655747707,-41.851493505510675,-14.535069244317718,12.566617028024169,0.6656311576401084,-1.4816645426283048
4.4602,-1.3547725857438304,-41.84402089875157,-14.510618307098595,12.546177779189346,0.6276506605590741,-1.4813666366073712
4.4702,-1.4070842641786216,-41.83678085737297,-14.488670256585552,12.527000228719716,0.5931977040717413,-1.4810316256693556
4.4802,-1.4617137467334245,-41.82913122907729,-14.465797242046445,12.506428955294155,0.5571742878920993,-1.4806370331399157
4.4938,-1.521749353289861,-41.820597338914,-14.440527371515618,12.483400718661168,0.5174858912903959,-1.4801683474817982
4.5003,-1.5849590603840182,-41.812438539501876,-14.414920047485484,12.459448876827864,0.4755281671839944,-1.4797132173726384
4.5102,-1.6458211604275426,-41.80392970787165,-14.389347742847175,12.435809530902286,0.43524244036457027,-1.4792262128111326
4.52,-1.5966303128404498,-41.81092280457878,-14.410569165616653,12.453614309714544,0.4677710453227162,-1.4794253213050452
4.5326,-1.5063503685569748,-41.823852243519084,-14.449138028647916,12.487117969181533,0.527501729913741,-1.4799021921478608
4.5417,-1.4107416332270533,-41.837657721835654,-14.489844007748937,12.522846455132466,0.5907956840819102,-1.4804362965825584
4.5508,-1.3189905771627493,-41.85127512593672,-14.528652332946045,12.557292584301374,0.6515183707500105,-1.4809519937863806
4.5602,-1.2370349270979224,-41.86403300310709,-14.563628701185078,12.588181698363652,0.7056928886400531,-1.4814207260203247
4.5731,-1.1607537232821923,-41.87531636477823,-14.596166778738697,12.616091350381414,0.7561116724876094,-1.4817889730589942
4.5813,-1.0864364863622806,-41.886007921040786,-14.627980172567323,12.64245206820241,0.8051367544944057,-1.4820723010556212
4.5903,-1.0180447205597343,-41.895124219795605,-14.65705516543694,12.665361611211646,0.8501841722699597,-1.4822128978169204
4.6007,-0.96204877130787,-41.90213377803611,-14.681330949053336,12.682516064080438,0.8868152431923004,-1.482167317174206
4.6103,-0.9061193103912037,-41.9082625462209,-14.705754274930015,12.698008630061558,0.9232247221316241,-1.4819800713508173
4.621,-0.8588107230752516,-41.91238373627512,-14.726674895586395,12.708582547266127,0.9537325633272289,-1.4815847314737605
4.6308,-0.8140134688503744,-41.91492304894234,-14.746733706327472,12.716193633058905,0.9823455516471862,-1.480996552751043
4.6402,-0.7753837859558901,-41.91569672909857,-14.764397661744518,12.719486684809727,1.0066417793390876,-1.4801886261276134
4.6533,-0.7405239258940911,-41.91463818743324,-14.780764385118356,12.719102364320012,1.0281798311293793,-1.4791551658012456
4.6603,-0.7085177983481735,-41.91172324267847,-14.796241180469252,12.715235156108315,1.0475498281221496,-1.4778907077094487
4.6702,-0.6819854916465534,-41.907156418263725,-14.809595086740252,12.707024949857608,1.0630240810410623,-1.4763778263005165
4.68,-0.6578732052888776,-41.90050490499701,-14.822231925485333,12.695187765002137,1.0765956448586227,-1.4746104908426618
4.6902,-0.6370721674328693,-41.892224047679605,-14.833721275351921,12.67955398682151,1.087668516645369,-1.472588311934731
4.7002,-0.6178299366576251,-41.88222577876169,-14.844847618261426,12.660525506668701,1.097449712817813,-1.470323005602785
4.7103,-0.6006518562397127,-41.869922142542706,-14.855453788409989,12.63779439773824,1.105495404538697,-1.4677722248762886
4.7241,-0.5850397186186546,-41.855200364020654,-14.865763434751573,12.611384136837373,1.1121550987449496,-1.464931024056936
4.7315000000000005,-0.570549820140483,-41.837791208795586,-14.876008709481173,12.581320606984544,1.1177307386290973,-1.4618046772869078
4.7427,-0.5582683797414741,-41.81915410570406,-14.88551513282843,12.54773750280267,1.121523365544208,-1.4584078165592775
4.7507,-0.5477873405791233,-41.79882329537013,-14.894558765064488,12.510527195056122,1.1237978714274437,-1.4547209047932512
4.7614,-0.5386263420593175,-41.77739241632075,-14.903268135022163,12.47000660326573,1.124869242689165,-1.4507645380726264
4.7703,-0.5303253208846912,-41.75513946813919,-14.911835326362255,12.426387900749992,1.1250504598819386,-1.4465489757723273
4.7803,-0.5233147996262673,-41.73214729764887,-14.920054882449746,12.379493094073602,1.1240746760920706,-1.4420298092965362
4.7913,-0.5166999068279916,-41.706461119211745,-14.928540485010373,12.3288949131084,1.1224738529493234,-1.4371972669752096
4.8003,-0.5110062927761811,-41.68145653456158,-14.93666493471382,12.275660534062856,1.1199459081297256,-1.4321228812521474
4.8112,-0.5059951056682731,-41.65364368126984,-14.945065352818883,12.218516246476385,1.1166610479733396,-1.4267217400975685
4.8201,-0.5010102173859784,-41.62675553397752,-14.953618463644538,12.159080679144806,1.1130686817484687,-1.4210698713559722
4.8301,-0.4970433205114788,-41.597832461724586,-14.961855671926479,12.095822850112413,1.108442474179229,-1.4150844056634977
4.8402,-0.49304904986973663,-41.56915934479678,-14.970209685057164,12.029992077718038,1.1035172600771714,-1.4088141292808303
4.8502,-0.48966888927080365,-41.53834793312858,-14.97869521147373,11.960492755761011,1.097853777573751,-1.4022219918710088
4.8624,-0.48673303676137547,-41.50389453834599,-14.987377909845154,11.886784019849307,1.091532955769436,-1.3952754621484134
4.8701,-0.4849311987456463,-41.46749635935919,-14.995986647219102,11.809349884405767,1.0841423085042776,-1.3880016143009357
4.8803,-0.4833734715580753,-41.430582379316625,-15.004458418790184,11.728858198730103,1.0762850450602341,-1.38040160502825
4.8976,-0.48251205871885394,-41.391997536009846,-15.012826533015296,11.64481028772689,1.0676203258363095,-1.3724754955059006
4.9098,-0.48343416538590966,-41.34673393649982,-15.021008617031423,11.555023913501817,1.0574800215924638,-1.3641168331634794
4.9175,-0.48491890345929245,-41.30037280417741,-15.029412567288434,11.462067139847013,1.0466316757338343,-1.3554355145673738
4.9202,-0.48716644852144464,-41.253163099619904,-15.037375885936477,11.365829157138972,1.0349265877479346,-1.3464010080919788
4.9302,-0.48736440881220744,-41.21729226329002,-15.045250178851333,11.271127381160994,1.024378805077086,-1.337271184549273
4.9402,-0.48772769817923445,-41.18151763332443,-15.05309601704022,11.173492321212784,1.013450283633586,-1.3278292361759765
4.9503,-0.48898019323705,-41.14408232947206,-15.060839445637322,11.072151027932936,1.0016592098526844,-1.3180558481329507
4.9601,-0.49108868170477515,-41.10630406805888,-15.06820396116506,10.967601462681186,0.9890175180460095,-1.3079655077562387
4.9704,-0.493502679186798,-41.06894555511848,-15.075326096166345,10.860282133123652,0.9759018630425287,-1.2975644138801425
4.9805,-0.49728742379907065,-41.02746878346215,-15.082178716335834,10.748341177718034,0.9616021960134613,-1.286769293830984
4.9906,-0.503233430296897,-40.9822682514634,-15.088320187822022,10.63174241059602,0.9456181620656943,-1.2755787652781398
5.0003,-0.5091595523150225,-40.937300943139235,-15.09430015966579,10.51256778743702,0.9293543392185701,-1.2640602878438465
5.0102,-0.5157302701399624,-40.89284322314616,-15.099834116595526,10.39066512579079,0.9123948364257206,-1.2522201710961103
5.0202,-0.5225134678360421,-40.848781938293605,-15.10506490850969,10.266147059367626,0.8950222709262028,-1.2400683323433863
5.0302,-0.5295192862912055,-40.80455806909305,-15.11000845815796,10.138870763571198,0.8772517095143506,-1.2275976332074148
5.0402,-0.5364959467593526,-40.761191197566085,-15.11452974436562,10.00928677791426,0.859210369891021,-1.2148125222944248
5.0505,-0.5471147852304346,-40.711232927297395,-15.117675758744221,9.873845545357549,0.8386276672768815,-1.201566307401535
5.0602,-0.5577493115949792,-40.66073028110237,-15.120457348428644,9.735837224974262,0.8177436969348442,-1.187977352404888
5.0713,-0.5696696842502709,-40.608083594395154,-15.122425301512205,9.594306151365648,0.7958131977417096,-1.1740084487436473
5.0817,-0.5827063520295361,-40.55487145733768,-15.123890837714402,9.44988311026822,0.7729413666442841,-1.159714154371912
5.0902,-0.5967479164115048,-40.499704250342496,-15.124353470920754,9.302205904639957,0.7492200905577264,-1.1450388563144842
5.1003,-0.6094923401266719,-40.44921234084221,-15.125298836026902,9.154104352614546,0.7261506945062228,-1.1301814102541303
5.1102,-0.619657199847524,-40.40184248371816,-15.125778439716708,9.005419835148896,0.7043551919347077,-1.1150029611399965
5.1202,-0.6321148168362627,-40.352962422432824,-15.125456898716953,8.853430707763755,0.6810281209456894,-1.0995499694378452
5.1302,-0.6436530719644715,-40.30395806627027,-15.124329601097442,8.699657211935822,0.6579993849858843,-1.0837410850156886
5.1431000000000004,-0.6580067270196039,-40.24987429680192,-15.121570705287679,8.5415761680322,0.6330994479739607,-1.0675354562493267
5.1504,-0.6744446640563295,-40.195785858114554,-15.11823149825619,8.381031496025614,0.6068241770214255,-1.0510909266115576
5.1606,-0.6889320847506397,-40.14176066400749,-15.114116313255172,8.219341602513072,0.5814578989578529,-1.0342790864857303
5.1703,-0.7044057612330108,-40.08646336662639,-15.108665603632225,8.055303225539872,0.5553410995346604,-1.0171459908556362
5.1804,-0.7166558767952831,-40.040088192734395,-15.104976560031183,7.893194760971821,0.5309826168908796,-0.9999227264370695
5.1902,-0.731428301402846,-39.98713616968378,-15.098329325112882,7.726957852214596,0.5050051449654807,-0.9823156840445928
5.2002,-0.7443708877469091,-39.935766022671494,-15.09129472078666,7.560453916119366,0.47991598388100964,-0.9644895082865073
5.2119,-0.7575988797286781,-39.88300744268462,-15.083206597386253,7.392327917997571,0.4545489867864738,-0.9463864651123994
5.2213,-0.7709791298464814,-39.831308311294585,-15.074221248096064,7.223345181179629,0.42896064502057474,-0.9280982014060604
5.2304,-0.7854713395208057,-39.77770872510082,-15.063967640056243,7.0526191991515095,0.4026526785782223,-0.9095383295687908
5.244,-0.8011201140146655,-39.72234551680239,-15.052092535406334,6.8803095148050195,0.37556057848973623,-0.8907285695959523
5.2501999999999995,-0.8183281487183012,-39.666739808484756,-15.039418505362391,6.7067363294372155,0.34758167251089933,-0.8717526284667854
5.2602,-0.8315850093105033,-39.61756201179729,-15.027904024548237,6.535318185834341,0.32168258364635127,-0.8526458318699333
5.2702,-0.8423582900972817,-39.5676161449491,-15.015318842192809,6.364102416393425,0.2970964175061903,-0.8333847799155975
5.2803,-0.8544140052253877,-39.51695077561177,-15.001501187006099,6.1920432366648575,0.27179981459592417,-0.8140157829011784
5.2902000000000005,-0.8647147567086038,-39.46621180229988,-14.986945677396717,6.020527018420878,0.24735820685868903,-0.7944775570070821
5.3002,-0.8768716416853846,-39.413675771075745,-14.970544919488596,5.8480786341478925,0.2218972762468603,-0.774816870237455
5.3102,-0.8872254724965134,-39.362170845341396,-14.953961874709973,5.676670120844979,0.19736328206414244,-0.7550727613490831
5.3202,-0.8974855837418136,-39.31042576162617,-14.936448002744749,5.5056151647356,0.1728740913665856,-0.7352617097650047
5.3302,-0.9070262236499447,-39.259015488296555,-14.9183392917353,5.33536515083147,0.14877833412560282,-0.7154289995522448
5.3403,-0.9167969596988013,-39.20720084655039,-14.89917443428061,5.165641052387908,0.12456184402563997,-0.6955482306220933
5.3502,-0.9269571267123791,-39.15562376575099,-14.879220692352709,4.996605176316836,0.10017956656404259,-0.6756723916383789
5.3602,-0.9381949966261554,-39.103513909681766,-14.858025171478918,4.828018964337182,0.0753073606786514,-0.655794825686709
5.3702,-0.9500620916539062,-39.057157472310195,-14.83790385436351,4.660970588218387,0.050240893664496244,-0.6361320256289478
5.3802,-0.9602218316659334,-39.004407607333874,-14.814982227492552,4.494827216626054,0.02598887462056032,-0.6162423618388604
5.3902,-0.9709710307720663,-38.951295079180724,-14.790911269438176,4.329751879523658,0.0015299185096568912,-0.596419738037914
5.4002,-0.9815700982041102,-38.89862141553857,-14.766224231632807,4.166223923731971,-0.022763164862924956,-0.5766829306211785
5.4106,-0.9912368709632968,-38.84535729776853,-14.74090162003279,4.004554283449,-0.04645943009612097,-0.5569852467884134
5.4206,-1.0010650589311605,-38.79242232752683,-14.714897789126239,3.844578690149537,-0.07007825609356955,-0.5374199942414318
5.4302,-1.0098546259049916,-38.73943209877762,-14.688468052680216,3.6867968101080204,-0.09301871882124679,-0.5179715676265666
5.4402,-1.0199190288278768,-38.685601405064645,-14.660492211059827,3.530526871962087,-0.11640779384743416,-0.49864260285506684
5.4511,-1.028308740151178,-38.63527920811929,-14.633704977313393,3.3770770920981183,-0.13873065466490564,-0.47959012986067767
5.4641,-1.0388041520616997,-38.581934229770035,-14.60423499764068,3.225037926935604,-0.16190983578034368,-0.46060219068909625
5.4726,-1.0518391070605535,-38.527367327217085,-14.572509579708903,3.074393756592504,-0.18615015498066434,-0.44173645167271436
5.4801,-1.0627087079705777,-38.47656505681298,-14.543430422368312,2.926949972548457,-0.20893941062688937,-0.42308950431449305
5.499,-1.0716920140201753,-38.42481666544738,-14.513368060417994,2.7825833105388695,-0.23061465279589788,-0.4046449353444339
5.5083,-1.0830554049929397,-38.37552775740451,-14.482489836906566,2.6402096369040144,-0.25313213152731295,-0.38644569805269935
5.5221,-1.094072305658084,-38.326700793512494,-14.451028520372407,2.500534144992373,-0.2751507586303714,-0.36849138741556187
5.5263,-1.1052641579683817,-38.276656426403086,-14.418280092621249,2.363618299392991,-0.29695839395327184,-0.35070848247887676
5.5302,-1.1142402301310552,-38.22963962256783,-14.387140714399761,2.230157492890793,-0.31730697128830077,-0.3332483210821854
5.5402000000000005,-1.115945396455468,-38.184526064627654,-14.360220944548194,2.1018376038274256,-0.333726774459671,-0.316149539357716
5.5502,-1.1152036223177189,-38.13858550957342,-14.33424220822565,1.977463931128923,-0.34851782456091307,-0.29940043504164515
5.5602,-1.1139498781388375,-38.09343265345121,-14.308537894591282,1.8565173734569758,-0.36259484440402767,-0.28305416463754796
5.5702,-1.1120986081199289,-38.049216991524624,-14.283251621066004,1.7390656806616245,-0.37594596105468536,-0.26711168149232545
5.5846,-1.11034127785911,-38.00576416451997,-14.257834414495639,1.6249574732568317,-0.3888524201409531,-0.25157745614080396
5.5902,-1.1086058914307606,-37.96388383263887,-14.232725086598226,1.514129827430362,-0.4013039903172455,-0.2364493986180839
5.6002,-1.103581444701519,-37.922708660213594,-14.210346212146321,1.4074888614843246,-0.411892395282897,-0.22176951622724284
5.6102,-1.0980877450390716,-37.88235117839776,-14.188511428507615,1.3044110461655798,-0.4217623538491653,-0.207533431761794
5.6202,-1.0917265492622839,-37.843141660776645,-14.167795513883238,1.2049257784739766,-0.43078911092564987,-0.19376200049733916
5.6302,-1.0847611714004828,-37.805536982747746,-14.148147804406312,1.108934810570028,-0.4390573875433339,-0.18046701674744614
5.6402,-1.0770594390871824,-37.76902315415622,-14.129593697064525,1.016462444437983,-0.4465383494640158,-0.16764203711382525
5.6502,-1.068870989309915,-37.73449565414326,-14.112236437504691,0.9273609684893775,-0.4532924634800488,-0.1552963731667667
5.6602,-1.0598353495302435,-37.70152975911908,-14.096391623806813,0.8416269853095177,-0.45921833395421796,-0.14343504816402908
5.6702,-1.0503364418157528,-37.669965906188715,-14.081565461922304,0.759207984466567,-0.4643932441945213,-0.13205449446219264
5.6802,-1.0400285488565093,-37.640880619362335,-14.068585798848586,0.6798841858460745,-0.468754666087539,-0.12116255641680634
5.6902,-1.0291437882871628,-37.6132844762052,-14.056774827639478,0.6037610837907688,-0.47224855360909945,-0.11075862696570365
5.7002,-1.0173735044801195,-37.588542548647965,-14.047147030094385,0.5303830059516398,-0.4749419774572936,-0.1008333102754318
5.7102,-1.0048242335910846,-37.56701416159915,-14.039408334909561,0.4598227220583522,-0.476669688016909,-0.09140322407861934
5.7206,-0.9915349947017116,-37.54877155935267,-14.03391203536412,0.3915031035299318,-0.4776687142613265,-0.08245178096692651
5.7302,-0.9773294147852887,-37.53457783204101,-14.03089002584946,0.325346020890118,-0.4776992089715586,-0.07398591790428155
5.7394,-0.9622408896344046,-37.52523385593755,-14.030610123161617,0.26087409365489667,-0.4768064656840276,-0.06599902647600886
5.7501999999999995,-0.9459150957216986,-37.520855788966706,-14.0332590059874,0.1981071463433709,-0.47470744551187405,-0.058489675797081975
5.7602,-0.9286827335103973,-37.52367680651167,-14.039468058131881,0.13583615750706746,-0.47170166133430946,-0.05145061396901629
5.7702,-0.9102923177534794,-37.5341297114916,-14.04953797579807,0.07372314903706945,-0.4675971830298016,-0.044867505699979326
5.7802,-0.8904649493927348,-37.553365041242785,-14.064010052588552,0.011271996575400678,-0.4622318327696462,-0.038730096017305926
5.7907,-0.869176364369612,-37.58343892374954,-14.083603946930465,-0.05258119309077436,-0.4556109499912404,-0.03304315872991914
5.8001000000000005,-0.8465008341880631,-37.628438694157644,-14.109540088747263,-0.11950762443940299,-0.4478195768229658,-0.027791082528987987
5.8103,-0.8225051986315588,-37.689772602319465,-14.142297341669995,-0.19090842260456764,-0.43883577026654663,-0.022930620952829495
5.8202,-0.7980564189517425,-37.778832647800584,-14.184827639257398,-0.27190294857564234,-0.42923883912091565,-0.018460378656464993
5.8302,-0.7717014915542526,-37.89204790627199,-14.237070631096312,-0.36113176823534,-0.4181498622856794,-0.01435658701987741
5.8401,-0.7427582078740727,-38.02724589167781,-14.298935105163325,-0.45797715634923164,-0.4051890369795599,-0.010592008908360429
5.8502,-0.7130944306619527,-38.209618556305614,-14.37687887540514,-0.5740137479642118,-0.39147873663181,-0.00713891720524118
5.8602,-0.6821587992350957,-38.44118157900557,-14.472011404323911,-0.7107898890140386,-0.3767158719218915,-0.003955553291238978
5.8702,-0.6495896711725648,-38.72496173478148,-14.58560484275614,-0.8703159195667272,-0.3607053462030283,-0.0009931340247933962
5.8802,-0.6133487425177961,-39.020636058642616,-14.70656154946071,-1.0354293502366259,-0.34233316062126695,0.0017999043151137317
5.8902,-0.5758212496642257,-39.36204195526561,-14.844004129846772,-1.2225671965212546,-0.3230514512674154,0.004472365927836827
5.9002,-0.5362910648276591,-39.69377773923848,-14.980627470638861,-1.4068970427503849,-0.3023126490332051,0.007072627432771761
5.9102,-0.4958357717947153,-39.99089368627622,-15.107899402518903,-1.578278642099062,-0.280920119115037,0.009678299798695555
5.9202,-0.44858861672450967,-39.97468887746283,-15.143659155690113,-1.6119724177372965,-0.25554884805625644,0.012210531353687382
5.9303,-0.4018630542608994,-39.698126790251976,-15.097908181772317,-1.527971060720335,-0.2302374369692144,0.014620299932468245
5.9404,-0.3491099560039259,-38.82925597525808,-14.873420431695116,-1.1756932189314462,-0.20129222311035777,0.01667194425395077
5.9502,-0.2990092652394378,-37.42529965900108,-14.48065230662741,-0.5677467406771897,-0.1734095141760177,0.018126514334652066
5.9603,-0.247575335258174,-35.45786076931667,-13.913576621735073,0.3130178694829935,-0.14393930250502507,0.018796169176581445
5.9702,-0.1938534311629776,-33.37732289229209,-13.315682007666332,1.262533417738801,-0.11262305956622631,0.018847392225410153
5.9803,-0.13407971913086159,-32.10583114576238,-12.978127157101502,1.8459851117085881,-0.07882451877311114,0.019064227103786517
5.991,-0.07553802605290716,-32.1616460834201,-13.05242339887494,1.8207765070244148,-0.04593877394478829,0.01999529987035558
6.0003,-0.011100688662654123,-33.415170334069195,-13.50253260347422,1.2300976680662705,-0.00993545164819043,0.02178519735765938
6.0103,0.056883781980064274,-35.764922542775054,-14.293830466497514,0.11384393116573466,0.027860338857467415,0.02440839802721717
6.0209,0.07158590175556578,-36.72934779209992,-14.620146213107587,-0.3026512152840539,0.03564096801358563,0.025137340544903963
6.0313,0.06553628230039887,-37.088506414622614,-14.743742137795799,-0.42481413460839224,0.031720295943170385,0.02522607271079752
6.0402,0.05760409363608754,-37.35019996893323,-14.835250154571431,-0.5027239179065459,0.026973564702539754,0.025412846142994494
6.0502,0.04966486419706273,-37.56602464745677,-14.91180227494255,-0.565570411699416,0.02217879769119513,0.02576675574707593
6.0603,0.04199964885405083,-37.74801210679904,-14.977774604855123,-0.6183973218756207,0.01748240618248209,0.026295685077136144
6.0703,0.0346254629636682,-37.8984855428028,-15.03434568807652,-0.6615135312051321,0.012908432404845183,0.026999659281599475
6.0802,0.02728505405785464,-38.0263900305662,-15.085118315790936,-0.6979064576335827,0.008290275030115701,0.02789284355832511
6.0903,0.020687103952031105,-38.11030449266381,-15.122822938331145,-0.7196890784691927,0.004051422455970677,0.028972049109726783
6.1002,0.014760703163609667,-38.14810933116034,-15.14725036941665,-0.725203085816692,0.00015094267993909227,0.030234787834231502
6.1102,0.00933504573697963,-38.137096570183516,-15.158254256866496,-0.7115332392335776,-0.0035047436088642137,0.031679832024421484
6.1203,0.00476950608237936,-38.050590231599,-15.146871900376208,-0.6667995248854801,-0.006688303433181275,0.03328518259433255
6.1302,0.0007430209481500416,-37.89428138521512,-15.11612068488948,-0.591768035467616,-0.009597770087102386,0.035046535675826995
6.1372,-0.00295419954704057,-37.66162848547608,-15.065081529907026,-0.4829007447651641,-0.012336286204557734,0.036949904109444875
6.1502,-0.006311482929150181,-37.13643387117716,-14.924075758604657,-0.23028390124355935,-0.014460350302342384,0.038625521893397075
6.1596,-0.008337261316031297,-36.593982627091776,-14.779020229681866,0.03158697193620141,-0.016111443545005155,0.040415953223006895
6.169,-0.00984106346544178,-35.88086568426458,-14.5822040792006,0.3824278821019744,-0.017314521821531592,0.042001350197990894
6.1817,-0.010685615209754085,-35.158889436011535,-14.386862488334307,0.7381796310032489,-0.01826468777679846,0.04359012623438546
6.1902,-0.011478870681671305,-34.14738503713905,-14.101780382241554,1.248686100054117,-0.018696344088423356,0.0445328744825883
6.2,-0.01132560929009585,-33.24307976876544,-13.84993676619667,1.71282344512876,-0.018820251056816506,0.045464906654091114
6.2102,-0.010839288027276406,-32.35497992577526,-13.603586478391248,2.17538707734814,-0.018636601657147533,0.04616120456055583
6.2178,-0.010270779025726373,-31.506652309816207,-13.36890337712811,2.622944773335406,-0.018127048417304836,0.04652127801675112
6.2303,-0.009264076733085158,-30.952197227463525,-13.225999363871463,2.91717944616722,-0.01751819729106674,0.04708375166089039
6.2415,-0.007621724584001677,-30.779250775054745,-13.200195246250853,3.0090611694866625,-0.016894456495335497,0.04812616083876499
6.251,-0.00551387615001675,-30.9187264341844,-13.273027030345688,2.931094719920192,-0.016173362884491338,0.049603769514102836
6.2604,-0.0032215614285679983,-31.33034038010554,-13.42879835023972,2.703734491739511,-0.01545355075580579,0.05142545948130875
6.2702,-0.0009001068161641479,-31.933413281490015,-13.641214645092656,2.3717989891150646,-0.01479159440698874,0.053449214707046916
6.2802,0.0013889365882797655,-32.66803894080207,-13.892742230170766,1.9705925499538681,-0.014146540672789865,0.05554065976239411
6.2902000000000005,0.0039136724174519966,-33.45041404266817,-14.15937904260379,1.5462763910481183,-0.013477695371605147,0.057578455403439366
6.3002,0.006098160674661179,-34.25620077862386,-14.431118144961975,1.1181422135393013,-0.012829127823092534,0.05946210115829634
6.3102,0.008171575769384098,-35.05393512502599,-14.700642112970591,0.7013991917476039,-0.012163947897461558,0.061110525692743334
6.3202,0.01085711224303898,-35.46576371278593,-14.85316474926486,0.4853709982624217,-0.011443429355498136,0.062014377585784264
6.3301,0.012669575914801445,-36.08251300274741,-15.066207110963006,0.176445287030633,-0.010812924662177092,0.0632869092213344
6.3402,0.014277694244211547,-36.62373659761629,-15.25662268088422,-0.08760799465950031,-0.010210037857405485,0.0642592823408365
6.3502,0.015623170058050695,-37.04714673806926,-15.410607978667047,-0.2865596987174266,-0.009659413329298427,0.06487126262617354
6.3602,0.016782570931925145,-37.383774374554,-15.539178168611754,-0.43861337919569365,-0.009149446425918306,0.06523213527340904
6.3704,0.017888542698555332,-37.51799014033203,-15.605650786061199,-0.4907771979209272,-0.008699773110494746,0.06521073312365577
6.3802,0.018662168993403006,-37.66595994892648,-15.67740565112532,-0.5498552491442343,-0.008340903146957679,0.06525706019125055
6.3903,0.01917151592266131,-37.76681299149352,-15.734792420645768,-0.587944352332417,-0.00807497797533907,0.06522073810212858
6.4003,0.01953839737527341,-37.81150788330064,-15.776520220957538,-0.601089962990583,-0.007881146994548338,0.0651067694406735
6.4102,0.019759628935961615,-37.81474394058361,-15.80683464903726,-0.5971214154611562,-0.007763167123090664,0.06496074988562239
6.4202,0.01984949590223728,-37.78797912410687,-15.829389718721407,-0.5824880511489989,-0.007717989969870942,0.06481612493814226
6.4303,0.019821323559740867,-37.735994919449325,-15.844105015471463,-0.5598326710716315,-0.007744486401052075,0.06468614364417913
6.4403,0.01970967143738589,-37.66580662216409,-15.854115640261792,-0.5320733743291832,-0.007833775351266947,0.06459299921152423
6.4502,0.019523313485041882,-37.59207710223357,-15.86376022730603,-0.5060865434043145,-0.007975867460595865,0.06456206748729393
6.4602,0.019249431128756544,-37.525037410823884,-15.877230373669246,-0.48658352026547647,-0.00816522547854781,0.06460264535644894
6.4717,0.01888795646385799,-37.47520479635084,-15.896867513513122,-0.47777245471187846,-0.008387925936847118,0.06470536853355169
6.4802,0.01854543712232215,-37.38385099956536,-15.906010618313672,-0.45335358187716923,-0.00864802206611115,0.06477080845441258
6.4902,0.01819731467656638,-37.31439441875752,-15.920306454060105,-0.44096383487172264,-0.008911977343579291,0.06491673638329204
6.5001999999999995,0.01782944192485414,-37.24553050022628,-15.937092399027136,-0.43153271989180064,-0.009195192489378723,0.06510051752610724
6.5103,0.01752295756877631,-37.17304667942706,-15.95112179893035,-0.4218860597673677,-0.009469199142625673,0.06529575209327593
6.5202,0.017230409073558883,-37.103567494903174,-15.967330471871152,-0.41578733683053004,-0.009744051059887848,0.06552545797895698
6.5303,0.01695908411758884,-37.04585408303421,-15.987076025958416,-0.41603867474331824,-0.010005498074040275,0.0657894222916483
6.5402000000000005,0.016724363355062666,-36.98693529553461,-16.00685095108205,-0.4173720769640983,-0.01025293784261061,0.06605678878353122
6.5502,0.01650780128002749,-36.930940449249256,-16.02841359287383,-0.42206432014298767,-0.010483724750767198,0.06633008058907242
6.5607,0.0163141239273088,-36.88222295650386,-16.052295379830674,-0.430452857270311,-0.01068826873006401,0.06660076177760887
6.5702,0.016166895553212157,-36.82922943268856,-16.074249394799764,-0.43754706231235985,-0.010863218666542718,0.0668387778891627
6.5803,0.016000190574908313,-36.78718696605102,-16.100570936209802,-0.45087707426779833,-0.011007072163272458,0.06706343003869704
6.5901,0.01584139464727219,-36.73667382854747,-16.12597072253071,-0.46296403511529893,-0.011121562634521354,0.06722786097976885
6.6002,0.015738197819417765,-36.6703116726543,-16.14480056172115,-0.4679371828060834,-0.011197737180312473,0.06729900222251584
6.6102,0.01564083375878078,-36.6042595390707,-16.162901962693724,-0.4730205920136592,-0.011236134565686395,0.06732153233605337
6.6201,0.01509355307522453,-36.65822704239971,-16.22120019928816,-0.5311733346851311,-0.01118578085148103,0.06747312250487814
6.6305,0.01488059208718262,-36.55104436799785,-16.229086888002815,-0.5230536641091224,-0.011113476353875384,0.06701117698338727
6.6403,0.01470391672551119,-36.43011259738954,-16.231502402257338,-0.5090663820491543,-0.0109887282893264,0.06649082439965659
6.6502,0.01460001872306571,-36.28760847889997,-16.225876169291883,-0.48685878685158324,-0.010837743747571071,0.06589110435530904
6.6603,0.014428461139145421,-36.16158688496925,-16.2241794364558,-0.470999315849417,-0.010651156427791797,0.06530690660046534
6.6702,0.014301534614056699,-36.018558418149716,-16.216069075025107,-0.44882088578872814,-0.010446881636998917,0.06464298430273446
6.6803,0.01419476537070019,-35.87384504544844,-16.204635512386346,-0.4245762520275844,-0.010231671804318943,0.06395401882872914
6.6902,0.014114625144350468,-35.72393241874707,-16.190814447691814,-0.3988043652026094,-0.010009663699949378,0.06325747197628367
6.7003,0.013987776333553192,-35.57903463110178,-16.17787893456657,-0.3752802781524862,-0.009773056771608335,0.06256192951116063
6.7102,0.01391368092437939,-35.42762919912451,-16.162408422720805,-0.3493099465898397,-0.009541391320335713,0.061857333799550884
6.7203,0.013830411865183745,-35.277876384661404,-16.14643435527229,-0.3244525584549882,-0.009310006982091057,0.06116775797469326
6.7302,0.013745168971966093,-35.130097217483005,-16.13047702064443,-0.3004361373609006,-0.009082624298144992,0.06049431510186143
6.7402,0.013622437011814537,-34.98363053068928,-16.11456721203959,-0.2778447064493861,-0.008853167055572264,0.05982985523302148
6.7501999999999995,0.013543714176296184,-34.83885147605404,-16.098303022348368,-0.25534698056712957,-0.008641534574939325,0.05918081037493744
6.7603,0.013428485731935336,-34.68904291745884,-16.081701646525772,-0.2337436643927493,-0.008424360079352766,0.058552370232746065
6.7707,0.013325084333460468,-34.543341340128734,-16.06551327413701,-0.2133841815421611,-0.008224025280071157,0.05793606158393477
6.7802,0.013209695651929865,-34.39859659893239,-16.049279716155045,-0.19416436766960166,-0.008032095137503692,0.05734517512606091
6.7903,0.013112990606980013,-34.27175164017703,-16.034634142738998,-0.17756607495220833,-0.007868662351578681,0.05679755896607125
6.8001000000000005,0.012996874390159396,-34.15079012653037,-16.020852771732294,-0.16243046354090218,-0.007716883325472601,0.05628813921870618
6.8102,0.012895093706175587,-34.033703238464994,-16.007191635507535,-0.14863629579569548,-0.00758271208764727,0.05581609663031317
6.8202,0.012795680182165814,-33.92095402718819,-15.994169778719273,-0.1360957902125246,-0.007463560996047391,0.055384074421973295
6.8305,0.012683951009978989,-33.81141435577786,-15.981547187715963,-0.12459889470903374,-0.007356018332652425,0.05498643823678623
6.8402,0.012548114871635097,-33.70523910779361,-15.969070392729186,-0.11396790190142658,-0.007257038225904289,0.05461526471452732
6.8502,0.012429128213341412,-33.60594386579443,-15.9572266236889,-0.10461083147209016,-0.007174286786023831,0.0542756858649151
6.8608,0.012286750837189109,-33.5061829952832,-15.945160038737225,-0.09563183848341517,-0.007097078977420956,0.053957792834675
6.8702,0.012173048638806527,-33.409343962554594,-15.933293218442913,-0.08775837362509398,-0.007035471133972848,0.05366576083402547
6.8803,0.012047447595714522,-33.32077426743021,-15.922166338148596,-0.08061339412780355,-0.006980916848007723,0.053404742248406245
6.8902,0.011939910119128316,-33.23573575968374,-15.911205830420128,-0.07426372583658902,-0.006937621096018365,0.053171984426635066
6.9002,0.01182564712730072,-33.15407378770456,-15.900295218688242,-0.06832371206686183,-0.006900141156816364,0.05296322958117655
6.9102,0.011705730054310748,-33.074681128134436,-15.889521764779634,-0.06270278789114903,-0.006867710749525191,0.05277416815906372
6.9203,0.011576854276859394,-32.997920813132865,-15.878461676115903,-0.05735335734198932,-0.00683798616693565,0.05259814416867595
6.9302,0.011445432835977654,-32.92252486573248,-15.867222560912774,-0.05227102803489769,-0.006811322688651256,0.052433234808302365
6.9403,0.011336705050440155,-32.85139547507863,-15.856554844477353,-0.04783906483180855,-0.006791117160906079,0.0522846289042288
6.9503,0.011253344107067798,-32.78419454309909,-15.846262500399389,-0.044019021660492985,-0.00677732341859949,0.052157173841288734
6.9602,0.011178253788282744,-32.71874872926565,-15.836027886986676,-0.04044722943701884,-0.006767270440037443,0.05204933473654633
6.9702,0.011123447457108915,-32.65867213405969,-15.82630350603837,-0.03732492837833279,-0.006762001222166969,0.051966332854584296
6.9803,0.011046771132193434,-32.595400141717334,-15.815612062364075,-0.03386031812652113,-0.006755277191995646,0.05189354156146572
6.9902,0.010955893809804329,-32.53418955073981,-15.804871202943536,-0.030276977801002802,-0.0067469521796708065,0.05182812031971054
7.0001,0.010900664969720752,-32.47656259813111,-15.794540650941197,-0.027531728230882235,-0.006745763853921005,0.05177139138393155
7.0118,0.010824405171602658,-32.42279899235195,-15.784564210918699,-0.02447215601137631,-0.0067389050293096275,0.05172548773308336
7.0221,0.010786436230203256,-32.37077455588559,-15.774875398314256,-0.02220652827407399,-0.006740021109846062,0.05168736606992433
7.0314,0.010728578944648515,-32.319525714880854,-15.765016142297762,-0.01965826528895298,-0.00673634630962372,0.05165405722916405
7.0421,0.01068166982399854,-32.272456428751006,-15.755709600373168,-0.01740101382782111,-0.006733956641608696,0.05162940240621089
7.0502,0.010647783774053399,-32.230683839128446,-15.747423135346898,-0.015400591509441952,-0.0067322159551426175,0.05162032436394559
7.0602,0.010631289467836424,-32.194930644356155,-15.740192082278543,-0.013780061192192328,-0.006732043386444175,0.05162358937191136
7.0702,0.010542056629171848,-32.1591751628847,-15.73242200921019,-0.010990716276997659,-0.006717289451531272,0.051623297423676245
7.0802,0.010515050003588211,-32.12979191560365,-15.726388963195017,-0.009583758111621044,-0.006713222285149367,0.05161867483344004
7.0902,0.010503292482248572,-32.10451679348468,-15.721146942254098,-0.008511542711888809,-0.006709033979650059,0.05162287712476482
7.1002,0.010505108837090993,-32.082502771525576,-15.716997896855347,-0.007687597898131893,-0.006706593968072383,0.05163854744130092
7.1102,0.010518129845451418,-32.06475097024657,-15.713641391701627,-0.007102298975294574,-0.006705978931201617,0.05166705397574087
7.1202,0.010497031412868951,-32.04829338382619,-15.710631247631776,-0.006074563877940586,-0.00669940231031152,0.05169784901673616
7.1302,0.010514817035059632,-32.03665496101307,-15.709195279928435,-0.005772077181409485,-0.006700120021944311,0.05173766178580297
7.1402,0.010534324490624636,-32.027454663326324,-15.708470920944045,-0.005551058855023605,-0.006701583340049222,0.051787772258753584
7.1503,0.010559282069881992,-32.02145204306932,-15.709064067201647,-0.005467211414727502,-0.006705186262587315,0.05184938390489982
7.1602,0.010589094793518106,-32.017009326993595,-15.710126336924509,-0.005511803016227668,-0.006710673992365468,0.051919995718520545
7.1703,0.01062118826368097,-32.01564334253364,-15.712443588366403,-0.005662403412097561,-0.00671868023518063,0.05200184232699212
7.1825,0.010645951508210794,-32.016341935419746,-15.71572995078254,-0.005800758415028695,-0.006727187319041761,0.05209167274490489
7.1904,0.010680094604328616,-32.01932502398503,-15.719979455398386,-0.006150606701787353,-0.006739271685223924,0.05218909348291159
7.2002,0.01071525460414835,-32.024796863487296,-15.725391175765703,-0.006587435440493672,-0.006753680129159445,0.052295881962370866
7.2102,0.010753127728186929,-32.032643712703134,-15.731964915357777,-0.007123436707273667,-0.006770856318508267,0.05241194000923238
7.226,0.0107940720885914,-32.043576356254945,-15.740404208551015,-0.007765741844301122,-0.006790560535157031,0.05253888935925399
7.242,0.010834549141900074,-32.05663846288524,-15.750069251009693,-0.008478736511617124,-0.00681269638310722,0.05267306918690057
7.2589,0.01088020490171604,-32.073958810581296,-15.76245630543905,-0.0093159359898084,-0.006837679226777249,0.05282152792150241
7.2702,0.01092592040269491,-32.09469050796109,-15.776971940732743,-0.010219404807742583,-0.006865176888471769,0.05298084625622013
7.2765,0.010980425422216,-32.11936833002439,-15.794031582300093,-0.011280270558514358,-0.00689689676240679,0.05315257582780919
7.2799,0.011018217384647144,-32.1473377761046,-15.813310159835474,-0.012246690426270912,-0.006927744790490298,0.05333622939136426
7.2839,0.011062496188853799,-32.17797957774667,-15.834101420808098,-0.013332884475389578,-0.00696182401932699,0.053522726515039004
7.2915,0.011052161765117585,-32.20481687535142,-15.852485391821439,-0.014041546425917428,-0.006987919390911479,0.05369543385105846
7.3003,0.011091357820506298,-32.23310958699846,-15.871315945058708,-0.015172905726894725,-0.007023627569156199,0.05386144593625747
7.3104,0.011155741400001862,-32.26184221487437,-15.890313486103976,-0.016424021014906975,-0.007062043687468211,0.054038663407771546
7.3202,0.011204835712126382,-32.29387919986459,-15.911429105270196,-0.017603248182981923,-0.007099163435276834,0.054227196233872774
7.3306000000000004,0.011274950266581096,-32.32801104819295,-15.933833922933061,-0.01889107611156754,-0.0071410901482824585,0.05442583154730524
7.3404,0.011325467759055075,-32.36244522097967,-15.956425723097102,-0.020051782592076794,-0.007180285471222625,0.05463268219366645
7.3503,0.011387506606146514,-32.40149359921283,-15.981945495312967,-0.0213049628178707,-0.007223674204715369,0.054848550426004526
7.3603,0.011453517512975853,-32.44247192979315,-16.008733106934404,-0.022568543596298896,-0.007267965510095786,0.05507432661104779
7.3702,0.011509675841342437,-32.485417006362596,-16.036801235450753,-0.023795039929584483,-0.007311382212291662,0.055306307409574595
7.38,0.011550033284695282,-32.532579873335386,-16.06767173733166,-0.025009035267408775,-0.007353166407618961,0.055542831472348966
7.3902,0.011612159577395031,-32.581648261601515,-16.09969419369783,-0.026291463669275927,-0.0073983634857965885,0.05577911211400922
7.4004,0.011685969122656958,-32.63395265587592,-16.133822744821458,-0.027602638655963685,-0.007445619597284736,0.05602545570057627
7.4103,0.011729876720157462,-32.69036607073025,-16.17066313060275,-0.028868698229764456,-0.0074883997240771105,0.05627762037842095
7.4202,0.011792426227487995,-32.74801817838032,-16.20824425372167,-0.03015860280168553,-0.007533900693526885,0.05652727158819733
7.4302,0.011848785349969804,-32.80733856782674,-16.246770158050527,-0.03142660111686829,-0.00757756401192089,0.056777292465140725
7.44,0.011807490604244686,-32.87256882414978,-16.288594094877997,-0.032624521130553696,-0.007603673244852338,0.05700658447940831
7.4502,0.011852365790553154,-32.939376742709705,-16.33184533980586,-0.033894739955714515,-0.007640690275699358,0.057223129557205585
7.4602,0.011905492034228193,-33.012805505852285,-16.37939123017429,-0.03518828194734985,-0.007677834065074718,0.057449585959891344
7.4702,0.01194750720657567,-33.087086006501764,-16.427468360042425,-0.036446339659521154,-0.007711068155108913,0.05767178825525793
7.4802,0.012000568308169202,-33.165920159831416,-16.478451708689065,-0.03769944330706415,-0.007745129329896239,0.05789827831959709
7.4902,0.01205567235827576,-33.247816922620295,-16.531398761901606,-0.038928331357381274,-0.007778251740643505,0.058127082702584466
7.5009,0.012104935409038009,-33.33638936063308,-16.588690904829853,-0.0401674195721789,-0.007809865599290866,0.058363275380566085
7.5106,0.012115164445192117,-33.42680271063695,-16.647051298029833,-0.041393768840077116,-0.007832858847069746,0.05858395307168233
7.5203,0.012097377943524612,-33.37491603470845,-16.61171918137946,-0.04231820670543185,-0.007823083309539625,0.05851532591358646
7.5297,0.012074483129958846,-33.278217679531195,-16.546980859116506,-0.04310228018231044,-0.007801722865297123,0.05835449334871475
7.5402000000000005,0.012033788705997583,-33.18120843918988,-16.481985097419102,-0.04387941229494702,-0.007775770433938067,0.058186146181659
7.5502,0.012025314930803277,-33.08950566592417,-16.42060659715162,-0.044577042862316785,-0.00775466288993476,0.05802625495258334
7.5602,0.012007161920347897,-32.9997905744394,-16.360427274281502,-0.0452712759655316,-0.007731072792727556,0.057870033060836844
7.5702,0.011977954415110403,-32.914372009604605,-16.302978575492023,-0.04595269577728389,-0.007705871468103975,0.057717481727116916
7.5802,0.011959735846068575,-32.83294165511863,-16.248212631859126,-0.04657976386749635,-0.007682735730670132,0.05756812638322513
7.5902,0.011943028343253448,-32.76010715586201,-16.199154417182246,-0.04716655864003516,-0.007661217463259984,0.05743358566241364
7.6002,0.01192920265354902,-32.69136586507043,-16.152803082105535,-0.04772033921464097,-0.007640802262791624,0.05730537057014668
7.6102,0.01191585620298341,-32.62838275567341,-16.110296833535752,-0.04823798567255699,-0.007621824739393102,0.05718689211276519
7.6202,0.011914194540052825,-32.57061577644162,-16.071273645734404,-0.04870379116387058,-0.007606194255139531,0.057079554046275946
7.6303,0.011905801560959328,-32.518221372470165,-16.035874541273756,-0.049156801743045264,-0.0075911939629069725,0.056983461301888624
7.6402,0.011904322555190139,-32.46709020410047,-16.00133633276704,-0.049571210979189984,-0.007578073349368664,0.05688984115791805
7.6502,0.01189938084683606,-32.42344579495387,-15.971879312415286,-0.04996247369054774,-0.007566989426961213,0.05681228908443486
7.6602,0.011917173115170265,-32.38262230855519,-15.944441959805216,-0.05027946235194425,-0.0075615027829454284,0.05674502110400938
7.6702,0.011918192634848945,-32.34614553614691,-15.919910975001052,-0.05062057510696072,-0.007555248564634409,0.0566903637882997
7.6813,0.011887851679067807,-32.31436285539442,-15.898370523643178,-0.050994153359713135,-0.0075455136449797955,0.056636121848043175
7.6903,0.011881828684490281,-32.28462658539331,-15.878422251802501,-0.05127229769427877,-0.007541036534515655,0.05658152670077655
7.6993,0.011866494250041382,-32.258081262457715,-15.860639549740709,-0.05154205123814076,-0.0075354214799290276,0.056530397589658304
7.7103,0.01186501243583149,-32.23296597477502,-15.843946170733867,-0.05175094900314334,-0.007533050161476762,0.05648006249975823
7.7202,0.011863707076206209,-32.212171791784904,-15.830206721310525,-0.05193658568700743,-0.007531725490082186,0.05643972299816518
7.7302,0.011863511144712513,-32.19330138791806,-15.817778402342844,-0.05210075410680928,-0.007531465465944409,0.05640346984059307
