Hamid-Manouchehri/bimanual_ur5/ur5_gazebo/scripts/data_plot/torque/T_y_90_40_5_80_35.csv
time,torque (Nm),T_shoulder,T_upper_arm,T_forearm,T_wrist_1,T_wrist_2,T_wrist_3
0.0103,0.02834884652008096,-42.64354722418214,-16.408342991928098,-0.43680679894078467,-0.21358618876536317,0.7419259055494355
0.0202,-0.07276924396098683,-49.45699292401094,-19.003037451782966,-0.25352984147136515,-0.11918740861992605,0.26365010031285824
0.0303,-0.05787604823107495,-51.33305673913903,-19.727763179101284,-0.24172474239156294,-0.07456345386218555,0.15562553474660012
0.0402,-0.02232497087705676,-51.63790168675813,-19.89396947534073,-0.1438049838261578,-0.0370904104234846,0.10634273943896333
0.0503,0.019657016836980734,-50.72216509191938,-19.61864808403977,-0.052500690563830554,-0.003212910382370815,0.07939176135608639
0.0602,0.060282836258291894,-48.807659181394975,-18.975485972245075,-0.0011545489647450946,0.026438897553660468,0.06296896268942631
0.0708,0.09412914096458347,-46.13847100724213,-18.049545771859663,0.02490348104742668,0.05002121542507343,0.05231859040798126
0.0801,0.11874425852553983,-42.98246445211136,-16.9330389832727,0.044758654806461795,0.06670581697704314,0.0452014864540633
0.0896,0.13278641642517464,-39.51848939518989,-15.687699142029913,0.06419022499032945,0.07694802008542911,0.04028152713617861
0.1001,0.13090026550475686,-36.367836723096694,-14.53035039553506,0.08589916257996477,0.07930360700845007,0.03696657594264208
0.1101,0.12243697969196266,-33.5442589230464,-13.475460654575079,0.1025574198853556,0.0751657763194511,0.03493533830285456
0.1201,0.10848091741337518,-31.06870703469219,-12.517406955798153,0.11669480800976362,0.06551958045868878,0.03384546805298788
0.1304,0.0861067776167912,-29.265663336434876,-11.797382661855046,0.13424285468669006,0.052467854343807296,0.033644826663912664
0.1402,0.05850636636586781,-28.146736546024503,-11.32225136326002,0.15395003117216488,0.0364748720606487,0.034167301432804276
0.1502,0.03008886159074975,-27.807542621195836,-11.138140015985512,0.17366318508241352,0.019718074942112196,0.03539055640438382
0.16,0.0025548309240137623,-28.14464343702948,-11.210986433632918,0.19224887660739443,0.003023942270298452,0.03725267460581272
0.1705,-0.024034741447335195,-29.097227942881855,-11.519465064041182,0.20863728012671112,-0.013529147014195608,0.039759544755983645
0.182,-0.04782623333305058,-30.60290494510789,-12.04226862257095,0.21821231070134872,-0.02853006711786188,0.042906925520657724
0.1902,-0.06614222945249337,-32.53414424045172,-12.73683049413826,0.21415944978439505,-0.04074958310212251,0.04663745717051798
0.2002,-0.0760642593495795,-34.611701199467625,-13.49292738010946,0.18709668120513756,-0.04830561090679675,0.050622223449780235
0.2102,-0.07805361963534141,-36.54658240679849,-14.201796945493168,0.13218114233096823,-0.05082457080902403,0.05447003371014619
0.2206,-0.07357436850025922,-38.336905566299784,-14.862336993814713,0.06044451512040672,-0.04948028001156457,0.05799037325366152
0.2302,-0.06247526519748292,-39.87538713474058,-15.440162160226018,-0.011992180923700246,-0.04472838250289701,0.060986809051919944
0.24,-0.04759189414350207,-41.049300634708935,-15.886033600389492,-0.07289561838241365,-0.03692876783040511,0.0632142750387486
0.2501,-0.029583936237360442,-41.73620427138265,-16.159586145494973,-0.10232718017549836,-0.02718601728216541,0.06447608709862357
0.2602,-0.00985821472851689,-41.94712304661506,-16.264265577155538,-0.09644443227989052,-0.015926482759219596,0.0648432212854827
0.2702,0.008446419193955501,-41.64522389111513,-16.183579435068076,-0.05350452369287728,-0.005239123123939926,0.06437803240706813
0.2801,0.025491910510810012,-40.94356555500878,-15.957932032465656,0.009398886640036519,0.00494660824993165,0.06339300786497198
0.2902,0.039779309653162453,-39.93487092048506,-15.618089631250747,0.08051937956315047,0.013602240530960152,0.06211595682449644
0.2998,0.04943062941936005,-38.78631249657302,-15.220489541505737,0.148803019362437,0.01960068118250513,0.060815142032123404
0.3103,0.05439630839292953,-37.601157945207625,-14.801007675835104,0.2104729674796353,0.022966935192791915,0.059668722125081786
0.3203,0.0548141967674618,-36.28339622533443,-14.326562072541048,0.275111695163303,0.024405094157401663,0.05863742723336779
0.3302,0.0517328465277318,-35.14567469426453,-13.910148358110206,0.3169106472006291,0.023027830913045833,0.05787280167305581
0.3402,0.04621121574915721,-34.22520788967977,-13.563986384740732,0.33875716357109775,0.019534343874794136,0.057552711814754354
0.3502,0.037590876696620645,-33.53058171346629,-13.293332123470924,0.35272061819777334,0.014498423326783527,0.057678540342982476
0.3602,0.027635841355196922,-33.15086283293905,-13.132602684278236,0.3475593190302573,0.008435292685658347,0.05828686178622941
0.3702,0.016624754295833766,-33.0600181640621,-13.072154543007152,0.3208509957013075,0.0015282008822050663,0.059379764646740496
0.3802,0.005868245390691973,-33.29445884388749,-13.127220774496758,0.2649798498691751,-0.005410059316170557,0.06100355586975004
0.3902,-0.0037144186429116655,-33.837687078862785,-13.29257767107221,0.1747293009468336,-0.011859891475011874,0.06314394821804925
0.399,-0.010572292804235772,-34.62704719125013,-13.54852737526949,0.04559249826021183,-0.016921028800768845,0.06571394279465004
0.4101,-0.015522921704043346,-35.632492264801755,-13.88411363683669,-0.11003734064495463,-0.021143733145602805,0.06865837508272421
0.4202,-0.018041162365793006,-36.785236396408884,-14.27426462485043,-0.2875428044538315,-0.024063206302513684,0.0718979508538447
0.4307,-0.017413764487122174,-37.94052118475839,-14.667906351688075,-0.4762032580877946,-0.02532908691449265,0.07523705572113915
0.4403,-0.014591740316207025,-38.95230236273848,-15.016210756149013,-0.6397334169951154,-0.025014131299932352,0.07833525497237243
0.4504,-0.010133702255628485,-39.71688787824389,-15.284284725464468,-0.7462472219338605,-0.023449485623433297,0.0808419009364908
0.4601,-0.00440436610506767,-40.184613647420704,-15.455568704173718,-0.7775610424441024,-0.020855467204664357,0.08255132645575192
0.4702,0.0017628779352449886,-40.305065590379336,-15.511298569294938,-0.7251928254518818,-0.017595568563189445,0.08331166627800107
0.4797,0.008142225263530145,-40.14025876099844,-15.471967595432648,-0.6149273838334786,-0.01398367591620886,0.08325186911582766
0.4906,0.014819157399626581,-39.74152500909498,-15.35434132731873,-0.46207823421552696,-0.009998998601100872,0.0825105381805501
0.5005,0.02045378218667615,-39.07769471886809,-15.146561900256367,-0.24953446849162164,-0.006079131417097372,0.08108217662156203
0.5106,0.02553849298771138,-38.476632886096496,-14.9546730530146,-0.11638964997580659,-0.0028713657218855104,0.07960205971418949
0.5202,0.02889978221268996,-37.76330590635223,-14.721579641678838,0.03212699620529991,-0.0003029950687531979,0.07798683699511832
0.5303,0.03061691339755246,-37.21190744473466,-14.536369945425799,0.10402720560510703,0.0010676800907303274,0.07667811488602577
0.5404,0.030377258510245086,-36.59987217858851,-14.327100593203827,0.1974558415009633,0.0016328461411898587,0.07534740295124615
0.5502,0.028619257242584073,-36.12502460132918,-14.160865328361798,0.2494368850609583,0.0012243529188582514,0.07424420177352009
0.5603,0.025694479938466408,-35.75720401812963,-14.02864496111734,0.27510937185222906,7.055110392784059e-05,0.07336634898871852
0.57,0.022281304558397164,-35.61569018660121,-13.969206947083746,0.23160673011265165,-0.0017823899341555816,0.07293063265097594
0.5802,0.018737481918762233,-35.64429440018996,-13.96653915717913,0.15325802585682813,-0.003983066234142463,0.07288056411070004
0.5903,0.015221325305883493,-35.805143940165436,-14.008808292339438,0.0546329540067354,-0.006372911075247956,0.07315943525934299
0.6002,0.012002671286904354,-36.041351215262246,-14.078456417757575,-0.038388275391214144,-0.00864655348097898,0.0736403322764635
0.61,0.009467725842175811,-36.34806794976849,-14.174306419425879,-0.13009637738258562,-0.010614684706471422,0.0742674511122014
0.6202,0.007466804484789646,-36.69120501087017,-14.284755380904969,-0.21113146719254838,-0.012281340601129287,0.07492188007214717
0.6302,0.006252465386233252,-37.051580325662364,-14.403828822999609,-0.2818506429729615,-0.01351606126886784,0.07554514872729573
0.6402,0.005816043444418106,-37.4031996042958,-14.522520916056628,-0.33726252137845747,-0.014289259209089522,0.07604845546924038
0.65,0.006000054339041494,-37.66755631061923,-14.615013640269893,-0.3515605173634291,-0.014537555566789706,0.07625819845612575
0.6599,0.00687696962598805,-37.87553448965402,-14.690823959224929,-0.34641362950841237,-0.014323124256999442,0.07618441045377183
0.6703,0.008170630085657882,-37.96070233450022,-14.726988374946894,-0.30999473029515934,-0.013706133856539182,0.07574494493946743
0.6801,0.009814705746636454,-37.968840410602006,-14.738485559193292,-0.25719582783729167,-0.012785785618460999,0.07497916584037928
0.6901,0.011579319206354022,-37.898084118633726,-14.723906284984533,-0.19216089175480833,-0.011685794278250672,0.07392318040984419
0.7003,0.013378128560113112,-37.74164944937513,-14.681197340080809,-0.10863285896054031,-0.010424121053548507,0.07254811434763142
0.7096,0.015364272603175966,-37.57149549980436,-14.633612403010194,-0.039822993240397286,-0.009073987549493623,0.07101628572543434
0.7202,0.017086590341480967,-37.38830257564035,-14.580102330481099,0.014632102439940509,-0.00785621488137389,0.06942441502517299
0.7302,0.01830558219077827,-37.210935723502786,-14.526544100100683,0.051673329754170494,-0.006934060559740551,0.06787122938798773
0.7402,0.019060595787496304,-37.02948678861078,-14.470069252628296,0.08028290883282385,-0.00627458634112843,0.06633315762429887
0.7502,0.019496415646747645,-36.899093759494754,-14.428614650485933,0.07992776280334901,-0.0059128752489305825,0.06493894148192136
0.7602,0.019506786815531196,-36.79239086427767,-14.393678029945216,0.0703514300631034,-0.0058420926314384225,0.06366703532394996
0.7702,0.01925238911240812,-36.73048722958085,-14.37230455143897,0.04141937079024616,-0.006030805800142147,0.06253783872641261
0.7802,0.01865514746458108,-36.6743829583945,-14.35257168442504,0.017912847785693575,-0.006424717923387391,0.06149819627219877
0.7903,0.01782641022857212,-36.64445729021532,-14.34111154717602,-0.008925017591178808,-0.006997088217842062,0.06054897686440197
0.8002,0.016828136603226795,-36.63863567732976,-14.337560373628264,-0.0368460519444751,-0.007703310973758981,0.05966900848862455
0.8102,0.015822842962599504,-36.66414833215833,-14.344675363455398,-0.065883012592719,-0.008457653558556988,0.05888093241959946
0.82,0.014827002966689484,-36.71121005702714,-14.359412822383119,-0.09328122447578058,-0.009231507395847771,0.058124001995508545
0.8303,0.013892280882883856,-36.77679002322669,-14.38094769977179,-0.11822618522348693,-0.00998798868477957,0.057368449520473486
0.8418,0.013080491913177505,-36.855703027031666,-14.407753476111948,-0.13914472155747193,-0.010681636074133305,0.05658532037585812
0.8502,0.01252001717496709,-36.94870428471884,-14.440131422207859,-0.15901438970304937,-0.011252771939243011,0.05579781552750651
0.8602,0.012313870485882505,-37.013932384504365,-14.464387705057115,-0.16412688658606944,-0.011575003746095103,0.05496464408624152
0.884,0.012303840075540196,-37.07260975623129,-14.487657770433358,-0.1614478912488455,-0.011750768348436136,0.05394591403012139
0.8891,0.012474496945255709,-37.130706829915745,-14.512021978384134,-0.15331423424033574,-0.011795709626647444,0.05272030689919566
0.8919,0.012950144494589422,-37.208185626603665,-14.543523270638413,-0.1526842819325538,-0.01169525899586965,0.05140857499875817
0.9002,0.013551857784923627,-37.21408364497849,-14.551189312411697,-0.13394173252764197,-0.011420185136034267,0.0500656557068922
0.9102,0.014243481029587723,-37.1924405354367,-14.549601476076152,-0.11328208879908686,-0.011052627201309395,0.04860465716275092
0.9202,0.014940483483550926,-37.15142931087847,-14.541240516273945,-0.09378809868814697,-0.010652055481578326,0.047047292572159116
0.9302,0.015706892494188995,-37.08268912207583,-14.524230777687508,-0.0700691709576915,-0.010169941625194134,0.045260437410557464
0.9402,0.01620917091851437,-36.96809110422383,-14.491695359642861,-0.0333331933765697,-0.009736499554798606,0.043365985705155874
0.9502,0.016635519114917896,-36.85404298943404,-14.458827693966468,-0.0035941767363703025,-0.009344412856104434,0.04136707607787338
0.9588,0.016996879646326013,-36.79214089542537,-14.442057997788815,-0.0010202922781645807,-0.009076272589137346,0.0394678197132553
0.9702,0.01723506000783037,-36.73196391443753,-14.425502241371781,-0.0021042826673134396,-0.008891182696246336,0.03753756743796699
0.98,0.017326711550668117,-36.678971804047514,-14.410875145646678,-0.005995780592778832,-0.00880805514645866,0.035629502244041544
0.9902,0.017285594873448495,-36.63080501934503,-14.39760595797306,-0.010759608881791172,-0.008815677929680632,0.033714676631852014
1.0003,0.017131985277480277,-36.59059528813542,-14.38681366697862,-0.016583041630258144,-0.008906881604563655,0.0317986139813326
1.0102,0.01688962116832249,-36.56083503246594,-14.379515008046969,-0.024176003326479734,-0.009072217801951776,0.029748100166341163
1.0202,0.016583801048336122,-36.53450487614947,-14.371547953663631,-0.02660364908649382,-0.009297610864934303,0.03045612494847172
1.0302,0.016244476307026634,-36.51714182149005,-14.36654625672399,-0.02789351295642839,-0.009555831499100442,0.03128707604748382
1.0402,0.015920904511095957,-36.51173012906916,-14.365533273713432,-0.02927270548390193,-0.009821934588082115,0.03215434677810347
1.0503,0.01563320076292163,-36.513503352554984,-14.36700761124401,-0.029233340319349654,-0.010074290567182675,0.033041134272180805
1.0602,0.015382926881676084,-36.52099299030906,-14.370556144700927,-0.027983186937380777,-0.010308550567021069,0.033948517408666334
1.0709,0.01517016547465877,-36.53133030772015,-14.375328217883151,-0.02477423663910172,-0.010517407679818902,0.03487178581124939
1.0807,0.015024972002887882,-36.54151367031142,-14.380209066710778,-0.01945653099223743,-0.01067762908373382,0.03577275097189209
1.0902,0.01496897321603785,-36.55681414606343,-14.386879308082142,-0.01544321273324134,-0.010788323647044074,0.03666673753568833
1.0996,0.014998888945378708,-36.568361575984774,-14.392321551334831,-0.010613012064800253,-0.010836432155587161,0.03751356565978731
1.1102,0.015107139587466234,-36.578509616037614,-14.397241136854776,-0.00663560950082287,-0.010831444830907255,0.038325335990252674
1.1277,0.015282228512155216,-36.58637824178996,-14.401546653993496,-0.0028127893625448097,-0.010776931312058036,0.03912958832597599
1.1333,0.015518447647091538,-36.591814657891405,-14.405330225996313,0.0010631009996510121,-0.010674659690469213,0.03993798213246336
1.1456,0.015788871855187292,-36.59217956910365,-14.40726676817321,0.0037676190404737353,-0.010541043070279699,0.04068373745765834
1.1526,0.01607130828599912,-36.584830556693994,-14.406605856510998,0.00671883164802578,-0.010383117317267931,0.041395587023422484
1.1602000000000001,0.01631809079396951,-36.574989490904024,-14.40457874153267,0.007216846920440223,-0.010242698997369626,0.04204150078173617
1.1703000000000001,0.016528304338408573,-36.55664344350091,-14.399490440834079,0.008399725351080911,-0.010110354564752289,0.04266954097912138
1.184,0.016701083321800647,-36.53733191389391,-14.393755344075197,0.0074832110414737585,-0.010003292602399405,0.043288871580365505
1.1994,0.016877078382169897,-36.52786056678555,-14.390654390330878,0.00035236901844271085,-0.009932266893367458,0.04395127886466583
1.2102,0.016988782120186396,-36.503531727616384,-14.382792584510863,-0.0024864453413648846,-0.009873825418287296,0.04461867358047527
1.2162,0.017033359130893988,-36.47439182718675,-14.373252337431754,-0.004179249824831532,-0.00984976357844225,0.04528956093628979
1.2215,0.01700135726788221,-36.44595990167807,-14.36383638456462,-0.005204838685423652,-0.009872957668158211,0.04594850601947146
1.2302,0.016893607863802895,-36.423527351655835,-14.35626095301232,-0.005145032635639701,-0.00994317415871171,0.04658644718191168
1.2398,0.016753282671641445,-36.41145682817938,-14.351968552333602,-0.005231915877606519,-0.010044196922168513,0.047224282540457144
1.2502,0.0165703661719665,-36.40399511210872,-14.349148492739603,-0.004555233074028497,-0.010173257979713135,0.04789604866095165
1.2596,0.016385854137402678,-36.40455405766108,-14.34894373792763,-0.004138504780133778,-0.010311848756067832,0.04857284211557736
1.2753,0.016192474409648883,-36.41145724530657,-14.350821186800765,-0.003670106986809918,-0.010460268370245718,0.04927616130541849
1.2938,0.015991454261669924,-36.42314690550652,-14.354309409671476,-0.002730030427100738,-0.010613904002689356,0.0500080871002353
1.3058,0.01579486927448248,-36.44133325368085,-14.359945912627381,-0.002195134739550686,-0.010769428978398832,0.050764103926049756
1.3104,0.015616571074539065,-36.46400783122677,-14.367126387290506,-0.0016280047331937997,-0.010914277850088805,0.05153175182365779
1.3141,0.015503614724087011,-36.49958271956839,-14.378410928711508,-0.005119077007764372,-0.011049426908402715,0.05233128145322445
1.3203,0.01553421301065061,-36.5365567170131,-14.390138242937281,-0.011012156728989586,-0.011118135480896463,0.05309684008762125
1.3303,0.01562671175472019,-36.557523187928304,-14.396788909130795,-0.013594417310788698,-0.011113283685327602,0.0537527420481616
1.3401,0.0157658612130136,-36.57218823437308,-14.40143019063631,-0.01580457578294625,-0.011063444848103732,0.054369285160337434
1.3502,0.01593963868068915,-36.58117703520379,-14.404235326800283,-0.0178997814873868,-0.010976494059831143,0.05494715784976309
1.3602,0.016124218468659857,-36.584612513440256,-14.405227932963664,-0.020134421399708224,-0.01086946209405193,0.055473427038080045
1.3700999999999999,0.016316659477870088,-36.58444780369951,-14.404999539868353,-0.02288188454615303,-0.010749871743140904,0.055969368053888205
1.3798,0.016499832651709623,-36.5810628025198,-14.403671863591386,-0.02585710960787313,-0.010629331375512141,0.05644122479551432
1.3901,0.016660726570314477,-36.57446003138317,-14.401239366908953,-0.028596798432170445,-0.010514770314943522,0.05689678700383861
1.4003,0.016792275656289712,-36.565797801241594,-14.398069006569967,-0.031089350344854827,-0.010413013931013015,0.05733860760633739
1.4116,0.016893030267053577,-36.5549330764532,-14.394094805165457,-0.033129894221626155,-0.01032459847428946,0.05778887471618012
1.4214,0.01695081335484927,-36.54353600831727,-14.38985911885134,-0.03470091267245978,-0.010258863621128267,0.05823521507583843
1.4306,0.016959912568292435,-36.5328590532016,-14.385741847086166,-0.03579872721407895,-0.010220053580230815,0.05868332971038401
1.4403000000000001,0.016918770990146825,-36.52527904698987,-14.382605934091512,-0.03637859829085199,-0.010212458148982861,0.05911936605646676
1.4502,0.016846816442859902,-36.52289322258848,-14.381107240776485,-0.03722887995077784,-0.010231691158919087,0.059558819469565226
1.4613,0.016747107744139456,-36.52408100071658,-14.380689230719792,-0.037947333660569904,-0.010272280267971556,0.06001873761018392
1.4769999999999999,0.0166212304969815,-36.52867684391959,-14.381278518370923,-0.038449494195209155,-0.010332133042768366,0.06050869353887596
1.4908000000000001,0.016473636373637524,-36.5370731209633,-14.382971324821671,-0.03900915435543395,-0.010410745575612168,0.061036273314240774
1.4975,0.016312194647757128,-36.549410871054384,-14.38583226190638,-0.039591601823645406,-0.010502708147495099,0.06159011198560181
1.506,0.01616661000096542,-36.56619883731966,-14.390101455265373,-0.04083302441508685,-0.010595520438986483,0.06215215004109122
1.5127000000000002,0.01603818766231435,-36.584049854764665,-14.394724653566778,-0.04169189353683633,-0.010676339684851044,0.06270968929968991
1.5203,0.01596456759088527,-36.60291522991518,-14.39981020277475,-0.043407124149625664,-0.010731115464480467,0.0632455430299386
1.5302,0.015928462109032537,-36.61772307056824,-14.403737981853476,-0.044407278903241476,-0.010751897168441271,0.06374126544056379
1.5386,0.01593613738047983,-36.63278903240265,-14.407815051299394,-0.04629101613353004,-0.010749329480656655,0.0642350727898821
1.5503,0.01596754081913132,-36.644238622071775,-14.410786083704568,-0.047460946742736265,-0.010720660665290094,0.06471770860156112
1.56,0.01602292472446254,-36.65226064298997,-14.41277819644949,-0.048705034579563766,-0.010672695406858335,0.06516359005610516
1.5701,0.016083715281631106,-36.65580400068397,-14.41339398753337,-0.04917634066074816,-0.010608580706908288,0.06558806064995712
1.58,0.016157075710209412,-36.65803127565277,-14.41362336034222,-0.05024638590834152,-0.01053820233875813,0.06599333569458317
1.5901,0.01622698176173243,-36.65744208900665,-14.412954715846848,-0.05093728929593011,-0.010463705844791171,0.06638725827119682
1.6000999999999999,0.01629102650082026,-36.655067084559676,-14.411701392971139,-0.051480632310804575,-0.010389829520743188,0.06677452470040461
1.6099999999999999,0.016342019516251582,-36.65140247677951,-14.410006162156048,-0.05180393763266966,-0.01032156881426971,0.06715856033469987
1.6197,0.016375915562876875,-36.646936574495896,-14.408006753330149,-0.051863027276029317,-0.010261945521696347,0.06754157556028526
1.6303,0.016396309378889917,-36.64221548525674,-14.405842852107998,-0.051814413417509364,-0.010210769876469517,0.0679384795203396
1.6428,0.01639132606703586,-36.6361981557848,-14.403157585135343,-0.050939088852860026,-0.010169296341136391,0.0683476841568847
1.6528,0.016386307228041908,-36.63463745537594,-14.401803804948425,-0.05150245951050769,-0.010144093298802837,0.06877230494136954
1.6602000000000001,0.016349565182564918,-36.6322798461664,-14.40020730397492,-0.05090906098766346,-0.010130850917070333,0.06918557243242437
1.6702,0.01629625890619968,-36.631383570730314,-14.399059342058791,-0.05016804600171887,-0.010129664496330903,0.06960476625557069
1.6801,0.01623032870048391,-36.63217366524631,-14.398404157322364,-0.04941310538977017,-0.01013905925079328,0.07004279447776722
1.6905999999999999,0.016155930981934574,-36.63439129439329,-14.398179578992169,-0.04855420226774765,-0.010155451742571042,0.07049149909215541
1.7001,0.01608073431013546,-36.6379023483664,-14.398396881827567,-0.047714790743843105,-0.010174546656846584,0.07093848263219488
1.7107,0.01600603681226298,-36.64246643217739,-14.398949609463134,-0.04685710917192931,-0.010194912501031883,0.07139808719200977
1.72,0.015937491881357513,-36.647599518149384,-14.399716908778167,-0.046006156507651164,-0.010212622791853754,0.07185927911614219
1.7303,0.015874541943661225,-36.65303476674339,-14.400581557428232,-0.04505708907555772,-0.010226841511582041,0.07233197787451687
1.7402,0.015822988006333638,-36.658008735576885,-14.401352673083494,-0.04405420422012618,-0.010233417691712265,0.07279825836852813
1.7502,0.015785481836863458,-36.662718743334224,-14.402090056802109,-0.04320702072292171,-0.010232088612244006,0.07326305138309831
1.7599,0.015759421913188687,-36.666309212217186,-14.402515347246823,-0.04223835562292022,-0.010221926099810652,0.07372456840617167
1.7703,0.015744820739410192,-36.66877825274161,-14.40263087978477,-0.041261506475875454,-0.010203520638048413,0.0741795003321489
1.7802,0.015739939947672532,-36.67014410777801,-14.402424465336932,-0.0402679109454358,-0.010177961127321389,0.07463416132042164
1.7902,0.015740438800566414,-36.67005907685691,-14.401797483407599,-0.03915979275139558,-0.010146938870807531,0.07507712206816862
1.8001,0.0157462758153184,-36.66906171340076,-14.400881584528351,-0.03803181504221642,-0.010111733044898763,0.07552576796574877
1.8102,0.015754843492974846,-36.66717204195254,-14.399672365909172,-0.03683827368274417,-0.01007379912896722,0.07598002084352228
1.8202,0.015762789535507693,-36.664622365830034,-14.398247531685387,-0.03560875130204544,-0.01003555249611976,0.076432737775336
1.8302,0.015767531595946238,-36.661778121076914,-14.396722177244248,-0.0343968772103615,-0.009999324795376907,0.07688381264506304
1.8401999999999998,0.0157660381133502,-36.65863640577495,-14.395092907274012,-0.03308214668982179,-0.009966429708594848,0.077332910802206
1.8502999999999998,0.015759237087597855,-36.65559184289404,-14.393464729328484,-0.031754722231502996,-0.009937377404601211,0.07779098912793492
1.8604,0.01574724018640783,-36.65247638717154,-14.391750383375394,-0.03028769819200318,-0.00991161244406591,0.07827250760023768
1.8721999999999999,0.015729898645624907,-36.64979969094151,-14.390110166202406,-0.02882896143853453,-0.009890335831236552,0.07877438983986806
1.8814,0.01569957154930557,-36.646138529014955,-14.388074668302016,-0.02665018272538644,-0.009872682553573764,0.07928674197297869
1.8904,0.015666275523760653,-36.64418132867118,-14.38658029900391,-0.02494249035245999,-0.009860797122092979,0.07979495454313756
1.9002,0.015631023602711958,-36.64349045069863,-14.385545661083027,-0.023555025711933464,-0.009852809754225422,0.08028855751861258
1.9102000000000001,0.01559367763439945,-36.6433353407457,-14.384694427734395,-0.02216552849540454,-0.00984724886158217,0.08078739267140567
1.9207,0.015554091777299384,-36.64371937484666,-14.383963261467885,-0.020696083256275477,-0.009844134052837905,0.0813187763366367
1.9302000000000001,0.015515238623916128,-36.644751637393064,-14.383437827530967,-0.019322540831230084,-0.009842190611903945,0.081858122454391
1.9402,0.015479343432099668,-36.64586895971779,-14.382982374003728,-0.017957699060347387,-0.009839114779515157,0.08238932603882587
1.95,0.015446988074500068,-36.64705104900504,-14.382566838488833,-0.01661057121142684,-0.009834623131116604,0.08292722338106046
1.9602,0.015418978677156803,-36.64837691845872,-14.382196172551382,-0.015321961095887238,-0.009828523576994819,0.08348062979218518
1.9702,0.015393640390664931,-36.64922547794434,-14.38166467201466,-0.013852260985786735,-0.009820199130301965,0.08404879647632596
1.9802,0.015373115503766632,-36.650011972341886,-14.381106163190116,-0.0124416141082353,-0.009809668314253006,0.08463279969900878
1.9903,0.015356638818149637,-36.650424394829216,-14.380423477120717,-0.011004708318129497,-0.009796805575909673,0.08523450831255208
2.0002,0.015343853326266421,-36.65046767154684,-14.379586428656498,-0.009513853031051456,-0.009782030538134645,0.08588302143024978
2.0104,0.015335760418106137,-36.64891810584778,-14.37763604325838,-0.006932415634091527,-0.009768841626053515,0.0874039605992214
2.021,0.015323279689955616,-36.65425617605823,-14.380820616201586,-0.01000826518180542,-0.00973767381690882,0.08453381211817201
2.0317,0.015314632875158551,-36.65876657769563,-14.383193865383646,-0.012371192053977742,-0.009709017795744845,0.0824400483280534
2.0458,0.01530809235559194,-36.66398903889631,-14.385722248623324,-0.015061076920485528,-0.009681005228655781,0.08037138027106916
2.0527,0.01530516866121534,-36.67038976140874,-14.388562826469125,-0.01824601759736577,-0.009653249210263226,0.07826499320202479
2.0667,0.015302213285845356,-36.67746727953638,-14.391539076056535,-0.021716762297246728,-0.009628343461054012,0.07624517588541646
2.0705,0.015301782990865043,-36.68593432776787,-14.394885908039734,-0.025774766866978105,-0.009606042716571395,0.07423675236679189
2.0802,0.015300958698931888,-36.69549005927092,-14.398548925514936,-0.03029800476103195,-0.009589651857584425,0.0723851256647291
2.0902,0.015299652684621412,-36.70576382248855,-14.402447673195995,-0.035142027868538595,-0.009578446952298592,0.07062611781916972
2.1003,0.015304192867112265,-36.71823018596052,-14.407081836429144,-0.04097164000397013,-0.00957267016797525,0.06893594708546202
2.1102,0.015305440376597979,-36.72962304562606,-14.411381493038236,-0.046299060260257985,-0.009570385699943618,0.0672947292148055
2.1202,0.015310192478994678,-36.74242492776556,-14.416157828152325,-0.052221605484974454,-0.009572705845392715,0.06568741240617681
2.1302,0.015307888774346079,-36.75255580320379,-14.420074936328191,-0.056861946053676116,-0.009577458492949109,0.06414544129065997
2.1402,0.015305358530260271,-36.762825221927415,-14.424033039402222,-0.061507231492436754,-0.009585698870329118,0.06263934202423771
2.1502,0.015303891001167802,-36.773047997399956,-14.427967007344279,-0.06609918698522788,-0.009596648636905236,0.06118861760265465
2.1602,0.015303605214687543,-36.7830463717358,-14.431816175327045,-0.07055793830033363,-0.009609554832562761,0.0597738539799989
2.1702,0.015310400144705527,-36.79457192877707,-14.436143120427346,-0.0756784151968446,-0.009624842598190853,0.0583923429462464
2.1802,0.015319915636833104,-36.80557208239665,-14.440281742096653,-0.08053409468296513,-0.009640839871544848,0.05703867126993989
2.1902,0.015331009375684435,-36.81525745649157,-14.44397612805184,-0.08480900879494513,-0.009656885865063636,0.05573183472681803
2.2002,0.015347091661644718,-36.82510092326665,-14.447700432664627,-0.08917321312279558,-0.009673568447760683,0.05445074510479275
2.2106,0.015369457881798665,-36.83524216349376,-14.451512913703105,-0.09372383337295909,-0.009690702810293494,0.05320211506762862
2.2206,0.01540082318424818,-36.846149880860295,-14.455559509929401,-0.09868925626920966,-0.009708370221700235,0.05199861990817434
2.2302,0.01542201629164186,-36.85050221863238,-14.457527363451673,-0.10080497798435051,-0.009722468261779138,0.050825245552066856
2.2399,0.015450021760782917,-36.856090774536945,-14.459895606562164,-0.10364934205564413,-0.009738820433788486,0.04974454920964316
2.2505,0.015481455934861499,-36.86143650180947,-14.462216425948892,-0.1065215901447325,-0.009755641475305943,0.04866926844850028
2.2602,0.015512878697141241,-36.865026826342515,-14.464012074951311,-0.10875263865257523,-0.009772626858563616,0.04765661340761662
2.2701000000000002,0.015546536739631911,-36.868042748202264,-14.465659212426539,-0.11086082564181043,-0.00979051787808416,0.04668705189545547
2.2802,0.01558162601255697,-36.8703082763844,-14.467116275400821,-0.11276861965984453,-0.00980923183675575,0.04574425122615278
2.2901,0.015617373374514631,-36.87164621150103,-14.468320823901935,-0.11438075299606232,-0.009828901389832279,0.04483781973890638
2.3001,0.015651088613691133,-36.8713711816121,-14.469042626359263,-0.11534351440671475,-0.00984948221893367,0.04398325770712569
2.3102,0.01568442059701236,-36.8703124242608,-14.46955944429848,-0.11604464519941304,-0.009871316157183507,0.043157408178487455
2.3202,0.0157141832357941,-36.86749189035537,-14.469570694029319,-0.1160591612811328,-0.009893858308230197,0.042338691623992564
2.3302,0.015741897483613654,-36.86375417784311,-14.469321463935112,-0.11571758509145558,-0.009917697533105674,0.041564013709767755
2.34,0.01576680974647049,-36.85895869945374,-14.468736160884875,-0.11489546300852749,-0.009942370487801888,0.0408411031594072
2.3502,0.015787702161933037,-36.85259815666173,-14.467690551640706,-0.11342606221116758,-0.009967349212199661,0.04014044862923449
2.3602,0.015810830574365387,-36.84686718717571,-14.466847709019659,-0.11224593868175003,-0.00999325117158234,0.03948505324524593
2.3702,0.015831111782610208,-36.83961837646571,-14.465558678903603,-0.11044120821812253,-0.010018680042928718,0.03884974713933581
2.3799,0.01585447148274488,-36.83296620370868,-14.464448885947625,-0.10890012855223175,-0.010044231751289878,0.038259155940757794
2.3905,0.015881605624911588,-36.82656897707368,-14.463491438463253,-0.10760406373138154,-0.010069753918203084,0.03768002005844967
2.4009,0.015911760150383314,-36.819930216713445,-14.462415126782954,-0.1061598898823013,-0.010094074073332848,0.03716055625877274
2.4101,0.01594287077865575,-36.81259403734657,-14.461068254755148,-0.1043477965817825,-0.010117058371976295,0.03668641582624682
2.4202,0.015974184585998863,-36.80443981054816,-14.459467039643847,-0.10221209347330085,-0.010138975780577208,0.036236675549038644
2.4302,0.01599878240341468,-36.793580789504865,-14.457016300666496,-0.09890245303567191,-0.010158861404987896,0.0358053043151062
2.4402,0.016029172478630782,-36.784681435631605,-14.455173232298314,-0.09650634176145534,-0.010179687812567284,0.03541316823119839
2.4502,0.016050585425906982,-36.7722361018401,-14.452234913707128,-0.09261168150987609,-0.010197778135035751,0.035034914893518454
2.4601,0.016073379265452825,-36.76088647660119,-14.44965526996228,-0.08926911015237904,-0.010216536816758381,0.034692255935926786
2.4702,0.016092731445268793,-36.7490937816248,-14.446900681855997,-0.0857043498940473,-0.010234536258309834,0.034386430772015864
2.4802,0.016117289836053095,-36.73928542837657,-14.444735436191142,-0.08301213192456602,-0.010253043067106393,0.034122023690313585
2.4902,0.01613466673912911,-36.72706236519607,-14.441818946304766,-0.07929253927354574,-0.010269409469790158,0.03387506924363892
2.5002,0.016154499105546893,-36.716275957887376,-14.439326515123984,-0.07619847949809722,-0.010286174939515114,0.03365879962821722
2.5108,0.016175203991785958,-36.705621260306984,-14.436899612504655,-0.07323277566559105,-0.010302277515062297,0.033474479833861925
2.5201000000000002,0.016201948974162494,-36.69724806323083,-14.43510035905512,-0.07112635720448446,-0.010318668085009808,0.033337468699566
2.5302,0.0162261876424159,-36.68786235394876,-14.432977893676943,-0.06857228101448642,-0.01033369627572478,0.03322566573850172
2.5402,0.016244155702652474,-36.67726930530443,-14.430439353729287,-0.06540869125902349,-0.010347467705408508,0.03314057527629144
2.5502000000000002,0.016268069823233366,-36.668829238571554,-14.428560461214666,-0.06318948097137977,-0.01036228252295368,0.03309128351011975
2.5598,0.016279784008661702,-36.657529718061824,-14.42575078414153,-0.059639531522258205,-0.010374636181667451,0.0330640492652704
2.5701,0.016300782098972677,-36.65005954409004,-14.424093274274489,-0.05771606691376842,-0.010389360796035696,0.03307596975418747
2.5802,0.01632116649212101,-36.64240477966714,-14.422375191470376,-0.055712327643707316,-0.010403343415881228,0.03311901307536454
2.5902,0.016343889787707733,-36.63575920507909,-14.420922196954567,-0.05406404698164019,-0.01041745607058564,0.03319597837154435
2.6,0.01636604976220002,-36.629258617982494,-14.419466951978201,-0.052394075896981196,-0.010431162788931747,0.03330429472632868
2.6101,0.016385035395517722,-36.622429755121956,-14.417864758916744,-0.05051514873965768,-0.010444336696157741,0.03344499128779681
2.6199,0.016405566662021087,-36.616826836906924,-14.416575137935403,-0.04905215429348064,-0.010458184001376658,0.03361784330629386
2.6302,0.016425498751517553,-36.6113060167151,-14.41529372193383,-0.04762604248714386,-0.010471937122687791,0.0338256891361324
2.6401,0.01644274984122407,-36.60594398546677,-14.41399323428217,-0.046167430362963446,-0.01048555080565805,0.03406484739499088
2.6502,0.016462158281930872,-36.60183368475916,-14.413010805144976,-0.045151239445474944,-0.010499818414280604,0.0343334519372064
2.6602,0.016481766651334384,-36.598363811573364,-14.412140099772182,-0.04427805309084809,-0.010514002757816332,0.034631388704908804
2.6702,0.01650117806261564,-36.59535218793542,-14.411341734540692,-0.043505166063122935,-0.010528118480269022,0.03496269745717207
2.6802,0.016519390285791635,-36.592681155909126,-14.410583852921956,-0.04278533933650752,-0.010542051088022308,0.03532306346079272
2.6902,0.016537836600581057,-36.59052193583637,-14.409934709005215,-0.042228692399983836,-0.010556007755786023,0.03571737674071994
2.7002,0.016555788766223323,-36.58878351852119,-14.4093629825138,-0.04178328848613444,-0.010569790838822257,0.036142118353409226
2.7103,0.016573350487439686,-36.5874174856636,-14.408863874427928,-0.04145292236332354,-0.010583421952054639,0.036604018856358875
2.7208,0.01658994582319573,-36.58638805937436,-14.408429088657359,-0.041216727857337876,-0.01059680591291201,0.03709840183851651
2.7304,0.01660616221246647,-36.58578246102831,-14.40808354618363,-0.041115672336168974,-0.01060994107968627,0.037627554226038765
2.7401999999999997,0.016622286463369385,-36.58565855896629,-14.407845278702448,-0.041157000585737014,-0.010622600957052253,0.038180279242269424
2.7492,0.01663805076004743,-36.585988821666746,-14.407702549816637,-0.04131689023030194,-0.010634621379594034,0.03875009409946442
2.7603,0.01665330760060768,-36.58670011139852,-14.407630338452837,-0.041593738730522745,-0.010646300080709992,0.039375235169796366
2.7699,0.0166680023882535,-36.58783643383284,-14.40764403216555,-0.04199102771879348,-0.010657508797505155,0.04003759189444197
2.7800000000000002,0.016682284280025828,-36.589398229296464,-14.407749277611465,-0.0424953319413266,-0.010667919512501456,0.04071048110041865
2.7901,0.01669720095223215,-36.59150030180876,-14.407968644989744,-0.043158159301529886,-0.010677960445997225,0.04142991275979481
2.8003,0.016711782611678272,-36.59400225083696,-14.408257647231009,-0.043907842691191745,-0.010687229219807914,0.042182015321494085
2.8104,0.016725192851950066,-36.5967888708463,-14.40859442165313,-0.04470475403314156,-0.010695559968133317,0.042944195491270105
2.8202,0.016737358882272124,-36.5999561420141,-14.408990396058405,-0.04557722798628183,-0.01070320642327971,0.043740201582615684
2.8298,0.01674844074666426,-36.60348380596343,-14.409447027349824,-0.04652515210420616,-0.010710151077459873,0.04456214863921542
2.8402,0.016758258510928048,-36.60728871802769,-14.409947381973687,-0.047526678543436285,-0.010716303185493103,0.045404238101372174
2.8502,0.016769116608226664,-36.611563253369766,-14.410528160802842,-0.04863733958013938,-0.010722073199987747,0.046292536476926
2.8602,0.01678520165170272,-36.61633409934822,-14.411208575037199,-0.04987615064886486,-0.010727763103596022,0.04722670809625086
2.87,0.016793682733856397,-36.620875030184784,-14.411787730589445,-0.050975519148120485,-0.010731509504341208,0.04816490986123851
2.8805,0.016800660661478117,-36.62565650067977,-14.412391512711304,-0.052114632889217805,-0.010734964288967141,0.04913967930990858
2.8902,0.016806939830111167,-36.630558692509375,-14.413000778079669,-0.053265133920725516,-0.01073795608801742,0.05013665847851454
2.9002,0.01680901908684418,-36.63553016025186,-14.41359464508754,-0.05440037445758006,-0.010740150316373764,0.05116541461429327
2.9102,0.016809272538491626,-36.64056216513206,-14.414177481274912,-0.05552396850279839,-0.010741747089565656,0.05221927498529731
2.9203,0.01680740619693566,-36.645651870510505,-14.41473767964859,-0.05662549631175784,-0.010742553910428665,0.05330553859009954
2.9302,0.016806298072890025,-36.65078758821494,-14.415272732713243,-0.05769621396013258,-0.01074272484896266,0.05443272433424321
2.9401,0.016802230019236752,-36.65581675369902,-14.415753647660976,-0.05869808747829364,-0.010741470483274007,0.05557945347978703
2.9503,0.0167986513924947,-36.66069596831407,-14.41617122126124,-0.05961504087091318,-0.010739173729433116,0.05675041504903036
2.9600999999999997,0.01679163046769827,-36.665475397176635,-14.416526963033371,-0.06045850739297598,-0.010735425727901315,0.05795546949760998
2.9702,0.016781622704302945,-36.67016911071148,-14.41681609476335,-0.06121739483360422,-0.010730428871004172,0.05920074513345419
2.9802,0.016769912918632723,-36.67456563955343,-14.417008039929064,-0.06184392424985741,-0.010724056219205913,0.06045983049273652
2.9901999999999997,0.016755583630958526,-36.67869178797672,-14.417100746270862,-0.06234114409126568,-0.010716138857137292,0.06174525770874171
3.0002,0.016738828265945083,-36.68253877976233,-14.41708531788042,-0.06269258563490399,-0.01070670308453936,0.06306474331579133
3.0103,0.01672378070637226,-36.6859378142417,-14.416930817512696,-0.06284854665682638,-0.010695842304928593,0.06440325624210763
